O4000
(FANUC G-CODE GENERATED FROM STEP FILE)
(FILE: INTER BUSBAR REAR-1.STP)
(DATE: 1742661396.681369)

G0 G17 G40 G49 G80 G90
G21
G91 G28 Z0
G91 G28 X0 Y0
G90
M6 T1
M3 S3000
G0 X0 Y0 Z20.0

(LAYER 1/64, Z = 32.800)
G0 Z20.0
G0 X-16.800 Y3.000
G1 Z32.800 F600.0
G1 X-16.800 Y3.000 F600.0
G1 X-16.800 Y3.000 F600.0
G1 X-16.800 Y3.000 F600.0
G1 X-16.800 Y3.000 F600.0
G1 X-16.800 Y3.000 F600.0
G1 X-16.800 Y3.000 F600.0
G1 X-16.800 Y3.000 F600.0
G1 X-16.800 Y3.000 F600.0
G1 X-16.800 Y3.000 F600.0
G1 X-16.800 Y3.000 F600.0
G1 X-16.800 Y3.000 F600.0
G1 X-16.800 Y3.000 F600.0
G1 X-16.800 Y3.000 F600.0
G1 X-16.800 Y3.000 F600.0
G1 X-16.800 Y3.000 F600.0
G1 X-16.800 Y3.000 F600.0
G1 X-16.800 Y3.000 F600.0
G1 X-16.800 Y3.000 F600.0
G1 X-16.800 Y3.000 F600.0
G1 X-16.800 Y3.000 F600.0
G1 X-16.800 Y3.000 F600.0
G1 X-16.800 Y3.000 F600.0
G1 X-16.800 Y3.000 F600.0
G1 X-16.800 Y4.000 F600.0
G1 X-16.800 Y-0.000 F600.0
G1 X-16.800 Y-0.000 F600.0
G1 X-16.800 Y-0.000 F600.0
G1 X-16.800 Y-0.000 F600.0
G1 X-16.800 Y0.000 F600.0
G1 X-16.800 Y0.000 F600.0
G1 X-16.800 Y0.000 F600.0
G1 X-16.800 Y0.000 F600.0
G1 X-16.800 Y0.500 F600.0
G1 X-16.800 Y0.500 F600.0
G1 X-16.800 Y0.500 F600.0
G1 X-16.800 Y0.500 F600.0
G1 X-16.800 Y0.500 F600.0
G1 X-16.800 Y0.500 F600.0
G1 X-16.800 Y0.500 F600.0
G1 X-16.800 Y0.500 F600.0
G1 X-16.800 Y0.500 F600.0
G1 X-16.800 Y0.500 F600.0
G1 X-16.800 Y0.500 F600.0
G1 X-16.800 Y0.500 F600.0
G1 X-16.800 Y0.500 F600.0
G1 X-16.800 Y0.500 F600.0
G1 X-16.800 Y0.500 F600.0
G1 X-16.800 Y0.500 F600.0
G1 X-16.800 Y0.500 F600.0
G1 X-16.800 Y0.500 F600.0
G1 X-16.800 Y0.500 F600.0
G1 X-16.800 Y0.500 F600.0
G1 X-16.800 Y0.500 F600.0
G1 X-16.800 Y0.500 F600.0
G1 X-16.800 Y0.500 F600.0
G1 X-16.800 Y0.500 F600.0
G1 X-16.800 Y3.000 F600.0
G1 X-16.800 Y3.000 F600.0
G1 X-16.800 Y3.000 F600.0
G1 X-16.800 Y3.000 F600.0
G1 X-16.800 Y3.000 F600.0
G1 X-16.800 Y3.000 F600.0
G1 X-16.800 Y3.000 F600.0
G1 X-16.800 Y3.000 F600.0
G1 X-16.800 Y3.000 F600.0
G1 X-16.800 Y3.000 F600.0
G1 X-16.800 Y3.000 F600.0
G1 X-16.800 Y3.800 F600.0
G1 X-16.800 Y3.800 F600.0
G1 X-16.800 Y3.800 F600.0
G1 X-16.800 Y3.800 F600.0
G1 X-16.800 Y3.800 F600.0
G1 X-16.800 Y3.800 F600.0
G1 X-16.800 Y3.800 F600.0
G1 X-16.800 Y3.800 F600.0
G1 X-16.800 Y3.800 F600.0
G1 X-16.800 Y3.800 F600.0
G1 X-16.800 Y3.800 F600.0
G1 X-16.800 Y3.800 F600.0
G1 X-16.800 Y3.800 F600.0
G1 X-16.800 Y3.800 F600.0
G1 X-16.800 Y4.000 F600.0
G1 X-16.800 Y4.000 F600.0
G1 X-16.800 Y4.000 F600.0
G1 X-16.800 Y3.000 F600.0
G1 X-16.798 Y3.000 F600.0
G1 X-16.794 Y3.000 F600.0
G1 X-16.763 Y3.837 F600.0
G1 X-16.763 Y3.837 F600.0
G1 X-16.762 Y3.000 F600.0
G1 X-16.693 Y3.907 F600.0
G1 X-16.693 Y3.907 F600.0
G1 X-16.678 Y3.000 F600.0
G1 X-16.600 Y4.000 F600.0
G1 X-16.600 Y4.000 F600.0
G1 X-16.600 Y4.000 F600.0
G1 X-16.600 Y4.000 F600.0
G1 X-16.600 Y4.000 F600.0
G1 X-16.600 Y4.000 F600.0
G1 X-16.600 Y4.000 F600.0
G1 X-16.600 Y4.000 F600.0
G1 X-16.600 Y4.000 F600.0
G1 X-16.600 Y4.000 F600.0
G1 X-16.600 Y4.000 F600.0
G1 X-16.600 Y4.000 F600.0
G1 X-16.578 Y3.000 F600.0
G1 X-16.479 Y4.000 F600.0
G1 X-16.449 Y3.000 F600.0
G1 X-16.300 Y0.000 F600.0
G1 X-16.300 Y0.000 F600.0
G1 X-16.300 Y0.000 F600.0
G1 X-16.300 Y0.000 F600.0
G1 X-16.300 Y0.000 F600.0
G1 X-16.300 Y0.000 F600.0
G1 X-16.300 Y0.000 F600.0
G1 X-16.300 Y0.000 F600.0
G1 X-16.300 Y0.000 F600.0
G1 X-16.300 Y-0.000 F600.0
G1 X-16.300 Y-0.000 F600.0
G1 X-16.300 Y0.000 F600.0
G1 X-16.300 Y-0.000 F600.0
G1 X-16.300 Y-0.000 F600.0
G1 X-16.300 Y-0.000 F600.0
G1 X-16.300 Y-0.000 F600.0
G1 X-16.300 Y-0.000 F600.0
G1 X-16.300 Y0.000 F600.0
G1 X-16.300 Y0.000 F600.0
G1 X-16.300 Y0.000 F600.0
G1 X-16.300 Y0.000 F600.0
G1 X-16.300 Y0.000 F600.0
G1 X-16.300 Y0.000 F600.0
G1 X-16.300 Y0.000 F600.0
G1 X-16.300 Y0.000 F600.0
G1 X-16.300 Y-0.000 F600.0
G1 X-16.295 Y3.000 F600.0
G1 X-16.295 Y3.000 F600.0
G1 X-16.295 Y3.000 F600.0
G1 X-16.295 Y3.000 F600.0
G1 X-16.295 Y3.000 F600.0
G1 X-16.295 Y-0.000 F600.0
G1 X-16.295 Y0.000 F600.0
G1 X-16.295 Y0.293 F600.0
G1 X-16.295 Y0.500 F600.0
G1 X-16.295 Y0.500 F600.0
G1 X-16.295 Y0.500 F600.0
G1 X-16.295 Y0.500 F600.0
G1 X-16.295 Y0.500 F600.0
G1 X-16.295 Y0.500 F600.0
G1 X-16.295 Y0.500 F600.0
G1 X-16.295 Y0.500 F600.0
G1 X-16.295 Y0.500 F600.0
G1 X-16.295 Y3.000 F600.0
G1 X-16.295 Y3.000 F600.0
G1 X-16.295 Y3.000 F600.0
G1 X-16.295 Y3.000 F600.0
G1 X-16.295 Y3.000 F600.0
G1 X-16.295 Y3.000 F600.0
G1 X-16.295 Y3.000 F600.0
G1 X-16.295 Y4.000 F600.0
G1 X-16.295 Y4.000 F600.0
G1 X-16.295 Y4.000 F600.0
G1 X-16.295 Y4.000 F600.0
G1 X-16.295 Y4.000 F600.0
G1 X-16.295 Y4.000 F600.0
G1 X-16.276 Y-0.000 F600.0
G1 X-16.276 Y0.215 F600.0
G1 X-16.276 Y1.000 F600.0
G1 X-16.276 Y0.286 F600.0
G1 X-16.274 Y0.194 F600.0
G1 X-16.262 Y0.151 F600.0
G1 X-16.248 Y0.356 F600.0
G1 X-16.237 Y0.110 F600.0
G1 X-16.230 Y4.000 F600.0
G1 X-16.218 Y0.403 F600.0
G1 X-16.218 Y0.089 F600.0
G1 X-16.214 Y3.000 F600.0
G1 X-16.214 Y3.000 F600.0
G1 X-16.185 Y0.146 F600.0
G1 X-16.178 Y0.057 F600.0
G1 X-16.178 Y0.450 F600.0
G1 X-16.131 Y0.493 F600.0
G1 X-16.128 Y0.495 F600.0
G1 X-16.128 Y0.033 F600.0
G1 X-16.125 Y0.498 F600.0
G1 X-16.123 Y-0.000 F600.0
G1 X-16.123 Y0.500 F600.0
G1 X-16.123 Y0.500 F600.0
G1 X-16.123 Y0.500 F600.0
G1 X-16.123 Y0.500 F600.0
G1 X-16.123 Y0.500 F600.0
G1 X-16.104 Y0.025 F600.0
G1 X-16.076 Y-0.000 F600.0
G1 X-16.054 Y0.011 F600.0
G1 X-16.041 Y0.572 F600.0
G1 X-16.001 Y0.003 F600.0
G1 X-15.973 Y0.001 F600.0
G1 X-15.952 Y0.641 F600.0
G1 X-15.946 Y-0.000 F600.0
G1 X-15.921 Y0.000 F600.0
G1 X-15.921 Y0.000 F600.0
G1 X-15.921 Y0.000 F600.0
G1 X-15.921 Y-0.000 F600.0
G1 X-15.921 Y-0.000 F600.0
G1 X-15.921 Y-0.000 F600.0
G1 X-15.921 Y0.000 F600.0
G1 X-15.921 Y0.000 F600.0
G1 X-15.918 Y-0.000 F600.0
G1 X-15.918 Y-0.000 F600.0
G1 X-15.918 Y-0.000 F600.0
G1 X-15.918 Y0.000 F600.0
G1 X-15.856 Y0.705 F600.0
G1 X-15.792 Y-0.000 F600.0
G1 X-15.792 Y-0.000 F600.0
G1 X-15.792 Y-0.000 F600.0
G1 X-15.628 Y3.000 F600.0
G1 X-15.628 Y3.000 F600.0
G1 X-15.612 Y0.842 F600.0
G1 X-15.424 Y4.000 F600.0
G1 X-15.424 Y4.000 F600.0
G1 X-15.424 Y4.000 F600.0
G1 X-15.424 Y4.000 F600.0
G1 X-15.424 Y3.900 F600.0
G1 X-15.424 Y4.000 F600.0
G1 X-15.424 Y4.000 F600.0
G1 X-15.331 Y0.940 F600.0
G1 X-15.272 Y4.000 F600.0
G1 X-15.159 Y0.980 F600.0
G1 X-15.114 Y3.969 F600.0
G1 X-14.979 Y1.000 F600.0
G1 X-14.957 Y3.935 F600.0
G1 X-14.800 Y1.000 F600.0
G1 X-14.800 Y3.000 F600.0
G1 X-14.800 Y3.000 F600.0
G1 X-14.800 Y3.000 F600.0
G1 X-14.800 Y3.000 F600.0
G1 X-14.800 Y3.000 F600.0
G1 X-14.800 Y3.900 F600.0
G1 X-14.800 Y0.500 F600.0
G1 X-14.800 Y1.000 F600.0
G1 X-14.800 Y1.000 F600.0
G1 X-14.800 Y1.000 F600.0
G1 X-14.800 Y1.000 F600.0
G1 X-14.800 Y3.000 F600.0
G1 X-14.800 Y3.000 F600.0
G1 X-14.800 Y3.000 F600.0
G1 X-14.800 Y3.000 F600.0
G1 X-14.800 Y3.000 F600.0
G1 X-14.800 Y3.000 F600.0
G1 X-14.800 Y3.000 F600.0
G1 X-14.800 Y3.900 F600.0
G1 X-14.800 Y3.900 F600.0
G1 X-14.800 Y3.900 F600.0
G1 X-14.800 Y3.900 F600.0
G1 X-14.800 Y4.000 F600.0
G1 X-13.397 Y0.396 F600.0
G1 X-13.397 Y0.396 F600.0
G1 X-13.397 Y0.500 F600.0
G1 X-13.397 Y0.500 F600.0
G1 X-13.397 Y3.000 F600.0
G1 X-13.397 Y3.000 F600.0
G1 X-13.397 Y3.000 F600.0
G1 X-13.397 Y3.000 F600.0
G1 X-13.397 Y3.000 F600.0
G1 X-13.397 Y3.000 F600.0
G1 X-13.397 Y3.000 F600.0
G1 X-13.397 Y3.000 F600.0
G1 X-13.397 Y3.000 F600.0
G1 X-13.397 Y3.000 F600.0
G1 X-13.397 Y4.000 F600.0
G1 X-13.397 Y4.000 F600.0
G1 X-13.397 Y4.000 F600.0
G1 X-13.397 Y4.000 F600.0
G1 X-13.397 Y4.000 F600.0
G1 X-13.397 Y4.000 F600.0
G1 X-13.397 Y0.500 F600.0
G1 X-13.397 Y0.500 F600.0
G1 X-13.397 Y0.500 F600.0
G1 X-13.397 Y0.500 F600.0
G1 X-13.397 Y0.500 F600.0
G1 X-13.397 Y0.500 F600.0
G1 X-13.397 Y3.000 F600.0
G1 X-13.397 Y3.000 F600.0
G1 X-13.397 Y0.000 F600.0
G1 X-13.397 Y0.500 F600.0
G1 X-13.387 Y-0.000 F600.0
G1 X-13.387 Y0.193 F600.0
G1 X-13.387 Y1.000 F600.0
G1 X-13.382 Y0.248 F600.0
G1 X-13.375 Y0.132 F600.0
G1 X-13.366 Y0.301 F600.0
G1 X-13.366 Y0.301 F600.0
G1 X-13.366 Y0.301 F600.0
G1 X-13.366 Y0.301 F600.0
G1 X-13.366 Y0.301 F600.0
G1 X-13.344 Y0.372 F600.0
G1 X-13.316 Y0.396 F600.0
G1 X-13.316 Y0.500 F600.0
G1 X-13.316 Y0.500 F600.0
G1 X-13.307 Y3.000 F600.0
G1 X-13.300 Y0.052 F600.0
G1 X-13.293 Y0.440 F600.0
G1 X-13.287 Y0.301 F600.0
G1 X-13.225 Y0.396 F600.0
G1 X-13.225 Y0.500 F600.0
G1 X-13.225 Y0.500 F600.0
G1 X-13.225 Y0.500 F600.0
G1 X-13.225 Y0.500 F600.0
G1 X-13.225 Y0.500 F600.0
G1 X-13.209 Y3.000 F600.0
G1 X-13.198 Y0.301 F600.0
G1 X-13.180 Y0.013 F600.0
G1 X-13.129 Y0.005 F600.0
G1 X-13.103 Y3.000 F600.0
G1 X-13.078 Y0.000 F600.0
G1 X-13.039 Y4.000 F600.0
G1 X-13.027 Y0.000 F600.0
G1 X-13.027 Y0.000 F600.0
G1 X-13.027 Y0.000 F600.0
G1 X-13.027 Y0.000 F600.0
G1 X-13.027 Y0.000 F600.0
G1 X-13.025 Y0.000 F600.0
G1 X-13.025 Y-0.000 F600.0
G1 X-13.025 Y-0.000 F600.0
G1 X-13.024 Y0.000 F600.0
G1 X-13.023 Y-0.000 F600.0
G1 X-13.023 Y0.000 F600.0
G1 X-13.023 Y0.000 F600.0
G1 X-13.023 Y0.000 F600.0
G1 X-13.023 Y0.000 F600.0
G1 X-13.023 Y0.000 F600.0
G1 X-13.023 Y-0.000 F600.0
G1 X-13.023 Y0.000 F600.0
G1 X-13.023 Y0.000 F600.0
G1 X-13.022 Y-0.000 F600.0
G1 X-13.021 Y0.000 F600.0
G1 X-13.021 Y0.000 F600.0
G1 X-13.021 Y-0.000 F600.0
G1 X-13.021 Y0.000 F600.0
G1 X-13.020 Y0.000 F600.0
G1 X-13.020 Y0.000 F600.0
G1 X-13.020 Y0.000 F600.0
G1 X-13.020 Y-0.000 F600.0
G1 X-13.020 Y0.000 F600.0
G1 X-13.020 Y-0.000 F600.0
G1 X-13.020 Y-0.000 F600.0
G1 X-12.982 Y0.714 F600.0
G1 X-12.821 Y3.000 F600.0
G1 X-12.800 Y0.500 F600.0
G1 X-12.800 Y3.000 F600.0
G1 X-12.800 Y3.000 F600.0
G1 X-12.800 Y3.000 F600.0
G1 X-12.800 Y4.000 F600.0
G1 X-12.677 Y0.895 F600.0
G1 X-12.526 Y3.900 F600.0
G1 X-12.526 Y4.000 F600.0
G1 X-12.526 Y4.000 F600.0
G1 X-12.526 Y4.000 F600.0
G1 X-12.526 Y4.000 F600.0
G1 X-12.526 Y4.000 F600.0
G1 X-12.526 Y4.000 F600.0
G1 X-12.505 Y3.000 F600.0
G1 X-12.374 Y4.000 F600.0
G1 X-12.307 Y3.000 F600.0
G1 X-12.290 Y1.000 F600.0
G1 X-12.216 Y3.969 F600.0
G1 X-12.104 Y3.000 F600.0
G1 X-12.059 Y3.935 F600.0
G1 X-11.902 Y1.000 F600.0
G1 X-11.902 Y3.000 F600.0
G1 X-11.902 Y3.000 F600.0
G1 X-11.902 Y3.000 F600.0
G1 X-11.902 Y3.000 F600.0
G1 X-11.902 Y3.000 F600.0
G1 X-11.902 Y3.000 F600.0
G1 X-11.902 Y3.000 F600.0
G1 X-11.902 Y3.000 F600.0
G1 X-11.902 Y3.000 F600.0
G1 X-11.902 Y3.000 F600.0
G1 X-11.902 Y3.900 F600.0
G1 X-11.902 Y0.500 F600.0
G1 X-11.902 Y1.000 F600.0
G1 X-11.902 Y1.000 F600.0
G1 X-11.902 Y1.000 F600.0
G1 X-11.902 Y1.000 F600.0
G1 X-11.902 Y3.000 F600.0
G1 X-11.902 Y3.000 F600.0
G1 X-11.902 Y3.900 F600.0
G1 X-11.902 Y3.900 F600.0
G1 X-11.902 Y3.900 F600.0
G1 X-11.902 Y3.900 F600.0
G1 X-11.902 Y4.000 F600.0
G1 X-11.500 Y3.800 F600.0
G1 X-11.500 Y3.800 F600.0
G1 X-11.500 Y4.000 F600.0
G1 X-11.500 Y4.000 F600.0
G1 X-11.500 Y4.000 F600.0
G1 X-11.500 Y4.000 F600.0
G1 X-11.500 Y4.000 F600.0
G1 X-11.500 Y4.000 F600.0
G1 X-11.500 Y4.000 F600.0
G1 X-11.500 Y4.000 F600.0
G1 X-11.500 Y4.000 F600.0
G1 X-11.500 Y4.000 F600.0
G1 X-11.500 Y4.000 F600.0
G1 X-11.500 Y4.000 F600.0
G1 X-11.250 Y3.800 F600.0
G1 X-11.250 Y3.800 F600.0
G1 X-11.250 Y3.800 F600.0
G1 X-11.250 Y3.800 F600.0
G1 X-11.250 Y3.800 F600.0
G1 X-11.250 Y3.800 F600.0
G1 X-11.250 Y3.800 F600.0
G1 X-11.250 Y3.800 F600.0
G1 X-11.250 Y3.800 F600.0
G1 X-11.250 Y3.800 F600.0
G1 X-11.250 Y3.800 F600.0
G1 X-11.250 Y3.800 F600.0
G1 X-11.000 Y3.800 F600.0
G1 X-11.000 Y3.800 F600.0
G1 X-11.000 Y4.000 F600.0
G1 X-11.000 Y4.000 F600.0
G1 X-11.000 Y4.000 F600.0
G1 X-11.000 Y4.000 F600.0
G1 X-11.000 Y4.000 F600.0
G1 X-11.000 Y4.000 F600.0
G1 X-11.000 Y4.000 F600.0
G1 X-11.000 Y4.000 F600.0
G1 X-11.000 Y4.000 F600.0
G1 X-11.000 Y4.000 F600.0
G1 X-11.000 Y4.000 F600.0
G1 X-11.000 Y4.000 F600.0
G1 X-9.250 Y3.800 F600.0
G1 X-9.250 Y3.800 F600.0
G1 X-9.250 Y3.800 F600.0
G1 X-9.250 Y3.800 F600.0
G1 X-9.250 Y3.800 F600.0
G1 X-9.250 Y3.800 F600.0
G1 X-9.250 Y3.800 F600.0
G1 X-9.250 Y3.800 F600.0
G1 X-9.250 Y4.000 F600.0
G1 X-9.250 Y4.000 F600.0
G1 X-9.250 Y4.000 F600.0
G1 X-9.250 Y4.000 F600.0
G1 X-9.250 Y4.000 F600.0
G1 X-9.250 Y4.000 F600.0
G1 X-9.250 Y4.000 F600.0
G1 X-9.250 Y4.000 F600.0
G1 X-9.250 Y4.000 F600.0
G1 X-9.250 Y4.000 F600.0
G1 X-9.250 Y4.000 F600.0
G1 X-9.250 Y4.000 F600.0
G1 X-7.250 Y3.800 F600.0
G1 X-7.250 Y3.800 F600.0
G1 X-7.250 Y3.800 F600.0
G1 X-7.250 Y3.800 F600.0
G1 X-7.250 Y3.800 F600.0
G1 X-7.250 Y3.800 F600.0
G1 X-7.250 Y3.800 F600.0
G1 X-7.250 Y3.800 F600.0
G1 X-7.250 Y4.000 F600.0
G1 X-7.250 Y4.000 F600.0
G1 X-7.250 Y4.000 F600.0
G1 X-7.250 Y4.000 F600.0
G1 X-7.250 Y4.000 F600.0
G1 X-7.250 Y4.000 F600.0
G1 X-7.250 Y4.000 F600.0
G1 X-7.250 Y4.000 F600.0
G1 X-7.250 Y4.000 F600.0
G1 X-7.250 Y4.000 F600.0
G1 X-7.250 Y4.000 F600.0
G1 X-7.250 Y4.000 F600.0
G1 X-4.800 Y0.000 F600.0
G1 X-4.800 Y0.000 F600.0
G1 X-4.800 Y-0.000 F600.0
G1 X-4.800 Y0.000 F600.0
G1 X-4.800 Y0.000 F600.0
G1 X-4.800 Y0.000 F600.0
G1 X-4.800 Y0.000 F600.0
G1 X-4.800 Y0.000 F600.0
G1 X-4.800 Y0.000 F600.0
G1 X-4.800 Y0.000 F600.0
G1 X-4.800 Y0.000 F600.0
G1 X-4.800 Y0.000 F600.0
G1 X-4.800 Y0.000 F600.0
G1 X-4.800 Y0.000 F600.0
G1 X-4.800 Y-0.000 F600.0
G1 X-4.800 Y0.000 F600.0
G1 X-4.800 Y-0.000 F600.0
G1 X-4.800 Y0.000 F600.0
G1 X-4.800 Y-0.000 F600.0
G1 X-4.800 Y0.000 F600.0
G1 X-4.800 Y0.000 F600.0
G1 X-4.800 Y-0.000 F600.0
G1 X-4.800 Y-0.000 F600.0
G1 X-4.800 Y0.000 F600.0
G1 X-4.593 Y-0.000 F600.0
G1 X-4.593 Y-0.000 F600.0
G1 X-4.566 Y0.000 F600.0
G1 X-4.500 Y4.000 F600.0
G1 X-4.500 Y4.000 F600.0
G1 X-4.500 Y4.000 F600.0
G1 X-4.500 Y4.000 F600.0
G1 X-4.500 Y4.000 F600.0
G1 X-4.500 Y4.000 F600.0
G1 X-4.500 Y4.000 F600.0
G1 X-4.500 Y4.000 F600.0
G1 X-4.500 Y4.000 F600.0
G1 X-4.500 Y4.000 F600.0
G1 X-4.500 Y4.000 F600.0
G1 X-4.500 Y4.000 F600.0
G1 X-4.500 Y4.000 F600.0
G1 X-4.500 Y4.000 F600.0
G1 X-4.499 Y3.999 F600.0
G1 X-4.496 Y3.996 F600.0
G1 X-4.487 Y3.987 F600.0
G1 X-4.474 Y3.974 F600.0
G1 X-4.464 Y3.964 F600.0
G1 X-4.447 Y3.947 F600.0
G1 X-4.446 Y0.146 F600.0
G1 X-4.446 Y0.146 F600.0
G1 X-4.427 Y3.927 F600.0
G1 X-4.418 Y3.918 F600.0
G1 X-4.409 Y3.909 F600.0
G1 X-4.400 Y3.900 F600.0
G1 X-4.400 Y3.900 F600.0
G1 X-4.400 Y3.900 F600.0
G1 X-4.400 Y3.900 F600.0
G1 X-4.400 Y3.900 F600.0
G1 X-4.400 Y4.000 F600.0
G1 X-4.400 Y4.000 F600.0
G1 X-4.354 Y4.000 F600.0
G1 X-4.331 Y0.000 F600.0
G1 X-4.300 Y0.500 F600.0
G1 X-4.300 Y3.000 F600.0
G1 X-4.300 Y3.000 F600.0
G1 X-4.300 Y0.000 F600.0
G1 X-4.300 Y0.500 F600.0
G1 X-4.300 Y3.000 F600.0
G1 X-4.300 Y3.000 F600.0
G1 X-4.300 Y3.000 F600.0
G1 X-4.300 Y3.000 F600.0
G1 X-4.300 Y3.000 F600.0
G1 X-4.300 Y3.000 F600.0
G1 X-4.300 Y3.000 F600.0
G1 X-4.300 Y3.000 F600.0
G1 X-4.300 Y3.000 F600.0
G1 X-4.300 Y3.000 F600.0
G1 X-4.300 Y3.000 F600.0
G1 X-4.300 Y3.000 F600.0
G1 X-4.300 Y3.000 F600.0
G1 X-4.300 Y3.000 F600.0
G1 X-4.300 Y3.000 F600.0
G1 X-4.300 Y3.000 F600.0
G1 X-4.300 Y3.000 F600.0
G1 X-4.300 Y3.000 F600.0
G1 X-4.300 Y3.800 F600.0
G1 X-4.300 Y0.000 F600.0
G1 X-4.300 Y0.000 F600.0
G1 X-4.300 Y-0.000 F600.0
G1 X-4.300 Y-0.000 F600.0
G1 X-4.300 Y0.000 F600.0
G1 X-4.300 Y0.293 F600.0
G1 X-4.300 Y0.293 F600.0
G1 X-4.300 Y0.500 F600.0
G1 X-4.300 Y0.500 F600.0
G1 X-4.300 Y0.500 F600.0
G1 X-4.300 Y0.500 F600.0
G1 X-4.300 Y0.500 F600.0
G1 X-4.300 Y0.500 F600.0
G1 X-4.300 Y0.500 F600.0
G1 X-4.300 Y0.500 F600.0
G1 X-4.300 Y0.500 F600.0
G1 X-4.300 Y0.500 F600.0
G1 X-4.300 Y0.500 F600.0
G1 X-4.300 Y0.500 F600.0
G1 X-4.300 Y0.500 F600.0
G1 X-4.300 Y0.500 F600.0
G1 X-4.300 Y0.500 F600.0
G1 X-4.300 Y0.500 F600.0
G1 X-4.300 Y0.500 F600.0
G1 X-4.300 Y0.500 F600.0
G1 X-4.300 Y0.500 F600.0
G1 X-4.300 Y0.500 F600.0
G1 X-4.300 Y0.500 F600.0
G1 X-4.300 Y0.500 F600.0
G1 X-4.300 Y3.000 F600.0
G1 X-4.300 Y3.000 F600.0
G1 X-4.300 Y3.000 F600.0
G1 X-4.300 Y3.000 F600.0
G1 X-4.300 Y3.000 F600.0
G1 X-4.300 Y3.000 F600.0
G1 X-4.300 Y3.000 F600.0
G1 X-4.300 Y3.000 F600.0
G1 X-4.300 Y3.000 F600.0
G1 X-4.300 Y3.800 F600.0
G1 X-4.300 Y3.800 F600.0
G1 X-4.300 Y3.800 F600.0
G1 X-4.300 Y3.800 F600.0
G1 X-4.300 Y3.800 F600.0
G1 X-4.300 Y3.800 F600.0
G1 X-4.300 Y3.800 F600.0
G1 X-4.300 Y3.800 F600.0
G1 X-4.300 Y3.800 F600.0
G1 X-4.300 Y3.800 F600.0
G1 X-4.300 Y3.800 F600.0
G1 X-4.300 Y3.800 F600.0
G1 X-4.300 Y3.800 F600.0
G1 X-4.300 Y3.800 F600.0
G1 X-4.300 Y3.800 F600.0
G1 X-4.300 Y3.900 F600.0
G1 X-4.300 Y3.000 F600.0
G1 X-4.300 Y3.800 F600.0
G1 X-4.300 Y3.800 F600.0
G1 X-4.212 Y3.000 F600.0
G1 X-4.212 Y0.500 F600.0
G1 X-4.207 Y4.000 F600.0
G1 X-4.124 Y3.000 F600.0
G1 X-4.124 Y0.500 F600.0
G1 X-4.000 Y-0.000 F600.0
G1 X-4.000 Y0.000 F600.0
G1 X-4.000 Y0.500 F600.0
G1 X-4.000 Y0.500 F600.0
G1 X-4.000 Y0.500 F600.0
G1 X-4.000 Y0.500 F600.0
G1 X-4.000 Y0.500 F600.0
G1 X-4.000 Y0.500 F600.0
G1 X-4.000 Y3.000 F600.0
G1 X-4.000 Y0.000 F600.0
G1 X-4.000 Y0.000 F600.0
G1 X-4.000 Y0.000 F600.0
G1 X-4.000 Y0.000 F600.0
G1 X-4.000 Y0.000 F600.0
G1 X-4.000 Y0.000 F600.0
G1 X-4.000 Y0.000 F600.0
G1 X-4.000 Y-0.000 F600.0
G1 X-4.000 Y0.000 F600.0
G1 X-4.000 Y-0.000 F600.0
G1 X-4.000 Y-0.000 F600.0
G1 X-4.000 Y-0.000 F600.0
G1 X-4.000 Y0.000 F600.0
G1 X-4.000 Y0.000 F600.0
G1 X-4.000 Y-0.000 F600.0
G1 X-4.000 Y0.000 F600.0
G1 X-4.000 Y0.000 F600.0
G1 X-4.000 Y-0.000 F600.0
G1 X-4.000 Y0.000 F600.0
G1 X-4.000 Y0.000 F600.0
G1 X-4.000 Y0.146 F600.0
G1 X-4.000 Y0.293 F600.0
G1 X-4.000 Y0.500 F600.0
G1 X-4.000 Y0.500 F600.0
G1 X-4.000 Y0.500 F600.0
G1 X-4.000 Y0.500 F600.0
G1 X-4.000 Y0.500 F600.0
G1 X-4.000 Y0.500 F600.0
G1 X-4.000 Y0.500 F600.0
G1 X-4.000 Y0.500 F600.0
G1 X-4.000 Y0.500 F600.0
G1 X-4.000 Y0.500 F600.0
G1 X-4.000 Y0.500 F600.0
G1 X-4.000 Y0.500 F600.0
G1 X-4.000 Y3.000 F600.0
G1 X-4.000 Y3.000 F600.0
G1 X-4.000 Y3.000 F600.0
G1 X-4.000 Y3.000 F600.0
G1 X-4.000 Y3.000 F600.0
G1 X-4.000 Y3.000 F600.0
G1 X-4.000 Y3.000 F600.0
G1 X-4.000 Y3.000 F600.0
G1 X-4.000 Y3.000 F600.0
G1 X-4.000 Y3.000 F600.0
G1 X-4.000 Y3.000 F600.0
G1 X-4.000 Y3.000 F600.0
G1 X-4.000 Y3.000 F600.0
G1 X-4.000 Y3.000 F600.0
G1 X-4.000 Y3.000 F600.0
G1 X-4.000 Y3.000 F600.0
G1 X-4.000 Y3.000 F600.0
G1 X-4.000 Y3.800 F600.0
G1 X-4.000 Y3.800 F600.0
G1 X-4.000 Y3.800 F600.0
G1 X-4.000 Y3.800 F600.0
G1 X-4.000 Y3.800 F600.0
G1 X-4.000 Y3.800 F600.0
G1 X-4.000 Y3.800 F600.0
G1 X-4.000 Y3.800 F600.0
G1 X-4.000 Y3.800 F600.0
G1 X-4.000 Y4.000 F600.0
G1 X-4.000 Y4.000 F600.0
G1 X-4.000 Y4.000 F600.0
G1 X-4.000 Y4.000 F600.0
G1 X-4.000 Y4.000 F600.0
G1 X-4.000 Y4.000 F600.0
G1 X0.000 Y0.000 F600.0
G1 X0.000 Y0.000 F600.0
G1 X4.000 Y0.000 F600.0
G1 X4.000 Y0.000 F600.0
G1 X4.000 Y0.000 F600.0
G1 X4.000 Y0.000 F600.0
G1 X4.000 Y0.000 F600.0
G1 X4.000 Y0.000 F600.0
G1 X4.000 Y0.000 F600.0
G1 X4.000 Y0.000 F600.0
G1 X4.000 Y-0.000 F600.0
G1 X4.000 Y0.000 F600.0
G1 X4.000 Y0.000 F600.0
G1 X4.000 Y-0.000 F600.0
G1 X4.000 Y-0.000 F600.0
G1 X4.000 Y0.000 F600.0
G1 X4.000 Y-0.000 F600.0
G1 X4.000 Y0.000 F600.0
G1 X4.000 Y0.000 F600.0
G1 X4.000 Y-0.000 F600.0
G1 X4.000 Y-0.000 F600.0
G1 X4.000 Y-0.000 F600.0
G1 X4.000 Y0.000 F600.0
G1 X4.000 Y0.000 F600.0
G1 X4.000 Y0.146 F600.0
G1 X4.000 Y0.293 F600.0
G1 X4.000 Y0.500 F600.0
G1 X4.000 Y0.500 F600.0
G1 X4.000 Y0.500 F600.0
G1 X4.000 Y0.500 F600.0
G1 X4.000 Y0.500 F600.0
G1 X4.000 Y0.500 F600.0
G1 X4.000 Y0.500 F600.0
G1 X4.000 Y0.500 F600.0
G1 X4.000 Y0.500 F600.0
G1 X4.000 Y0.500 F600.0
G1 X4.000 Y0.500 F600.0
G1 X4.000 Y0.500 F600.0
G1 X4.000 Y0.500 F600.0
G1 X4.000 Y3.000 F600.0
G1 X4.000 Y3.000 F600.0
G1 X4.000 Y3.000 F600.0
G1 X4.000 Y3.000 F600.0
G1 X4.000 Y3.000 F600.0
G1 X4.000 Y3.000 F600.0
G1 X4.000 Y3.000 F600.0
G1 X4.000 Y3.000 F600.0
G1 X4.000 Y3.000 F600.0
G1 X4.000 Y3.000 F600.0
G1 X4.000 Y3.000 F600.0
G1 X4.000 Y0.500 F600.0
G1 X4.000 Y0.500 F600.0
G1 X4.000 Y0.500 F600.0
G1 X4.000 Y0.500 F600.0
G1 X4.000 Y0.500 F600.0
G1 X4.000 Y3.000 F600.0
G1 X4.198 Y2.902 F600.0
G1 X4.198 Y2.902 F600.0
G1 X4.198 Y2.902 F600.0
G1 X4.198 Y2.902 F600.0
G1 X4.199 Y2.901 F600.0
G1 X4.211 Y2.889 F600.0
G1 X4.223 Y2.877 F600.0
G1 X4.234 Y2.866 F600.0
G1 X4.235 Y2.865 F600.0
G1 X4.252 Y3.000 F600.0
G1 X4.252 Y3.000 F600.0
G1 X4.255 Y2.845 F600.0
G1 X4.267 Y2.833 F600.0
G1 X4.271 Y2.829 F600.0
G1 X4.278 Y2.822 F600.0
G1 X4.288 Y2.812 F600.0
G1 X4.289 Y2.811 F600.0
G1 X4.296 Y3.000 F600.0
G1 X4.296 Y3.000 F600.0
G1 X4.296 Y3.000 F600.0
G1 X4.296 Y3.000 F600.0
G1 X4.296 Y3.000 F600.0
G1 X4.296 Y3.000 F600.0
G1 X4.296 Y3.000 F600.0
G1 X4.296 Y3.000 F600.0
G1 X4.296 Y2.804 F600.0
G1 X4.298 Y2.970 F600.0
G1 X4.298 Y2.970 F600.0
G1 X4.299 Y2.801 F600.0
G1 X4.300 Y0.000 F600.0
G1 X4.300 Y0.500 F600.0
G1 X4.300 Y0.500 F600.0
G1 X4.300 Y2.800 F600.0
G1 X4.300 Y2.800 F600.0
G1 X4.300 Y2.800 F600.0
G1 X4.300 Y2.800 F600.0
G1 X4.300 Y2.800 F600.0
G1 X4.300 Y2.800 F600.0
G1 X4.300 Y2.800 F600.0
G1 X4.300 Y2.800 F600.0
G1 X4.300 Y0.000 F600.0
G1 X4.300 Y0.000 F600.0
G1 X4.300 Y0.000 F600.0
G1 X4.300 Y-0.000 F600.0
G1 X4.300 Y-0.000 F600.0
G1 X4.300 Y0.293 F600.0
G1 X4.300 Y0.293 F600.0
G1 X4.300 Y0.500 F600.0
G1 X4.300 Y0.500 F600.0
G1 X4.300 Y0.500 F600.0
G1 X4.300 Y0.500 F600.0
G1 X4.300 Y0.500 F600.0
G1 X4.300 Y0.500 F600.0
G1 X4.300 Y0.500 F600.0
G1 X4.300 Y0.500 F600.0
G1 X4.300 Y0.500 F600.0
G1 X4.300 Y0.500 F600.0
G1 X4.300 Y0.500 F600.0
G1 X4.300 Y0.500 F600.0
G1 X4.300 Y0.500 F600.0
G1 X4.300 Y0.500 F600.0
G1 X4.300 Y0.500 F600.0
G1 X4.300 Y0.500 F600.0
G1 X4.300 Y0.500 F600.0
G1 X4.300 Y0.500 F600.0
G1 X4.300 Y0.500 F600.0
G1 X4.300 Y0.500 F600.0
G1 X4.300 Y0.500 F600.0
G1 X4.300 Y0.500 F600.0
G1 X4.300 Y2.800 F600.0
G1 X4.300 Y2.800 F600.0
G1 X4.300 Y2.800 F600.0
G1 X4.300 Y2.800 F600.0
G1 X4.300 Y2.800 F600.0
G1 X4.300 Y2.800 F600.0
G1 X4.300 Y2.800 F600.0
G1 X4.300 Y2.800 F600.0
G1 X4.300 Y2.848 F600.0
G1 X4.300 Y2.848 F600.0
G1 X4.300 Y2.916 F600.0
G1 X4.300 Y2.916 F600.0
G1 X4.300 Y2.916 F600.0
G1 X4.300 Y2.916 F600.0
G1 X4.300 Y2.916 F600.0
G1 X4.300 Y2.916 F600.0
G1 X4.300 Y2.916 F600.0
G1 X4.300 Y2.916 F600.0
G1 X4.300 Y2.916 F600.0
G1 X4.300 Y2.916 F600.0
G1 X4.300 Y2.941 F600.0
G1 X4.300 Y2.941 F600.0
G1 X4.300 Y3.000 F600.0
G1 X4.300 Y3.000 F600.0
G1 X4.300 Y3.000 F600.0
G1 X4.300 Y3.000 F600.0
G1 X4.310 Y3.000 F600.0
G1 X4.310 Y3.000 F600.0
G1 X4.323 Y3.000 F600.0
G1 X4.323 Y3.000 F600.0
G1 X4.331 Y0.000 F600.0
G1 X4.337 Y3.000 F600.0
G1 X4.337 Y3.000 F600.0
G1 X4.376 Y3.000 F600.0
G1 X4.376 Y3.000 F600.0
G1 X4.398 Y3.102 F600.0
G1 X4.398 Y3.102 F600.0
G1 X4.398 Y3.102 F600.0
G1 X4.398 Y3.102 F600.0
G1 X4.399 Y3.101 F600.0
G1 X4.410 Y3.000 F600.0
G1 X4.410 Y3.000 F600.0
G1 X4.411 Y3.089 F600.0
G1 X4.423 Y3.077 F600.0
G1 X4.431 Y3.000 F600.0
G1 X4.431 Y3.000 F600.0
G1 X4.434 Y3.066 F600.0
G1 X4.435 Y3.065 F600.0
G1 X4.446 Y0.146 F600.0
G1 X4.446 Y0.146 F600.0
G1 X4.455 Y3.045 F600.0
G1 X4.465 Y3.000 F600.0
G1 X4.466 Y3.000 F600.0
G1 X4.467 Y3.033 F600.0
G1 X4.471 Y3.029 F600.0
G1 X4.478 Y3.022 F600.0
G1 X4.487 Y3.000 F600.0
G1 X4.488 Y3.000 F600.0
G1 X4.488 Y3.012 F600.0
G1 X4.489 Y3.011 F600.0
G1 X4.496 Y3.000 F600.0
G1 X4.496 Y3.000 F600.0
G1 X4.496 Y3.004 F600.0
G1 X4.499 Y3.001 F600.0
G1 X4.500 Y3.000 F600.0
G1 X4.500 Y3.000 F600.0
G1 X4.500 Y3.000 F600.0
G1 X4.500 Y3.000 F600.0
G1 X4.500 Y3.000 F600.0
G1 X4.500 Y3.000 F600.0
G1 X4.500 Y3.000 F600.0
G1 X4.500 Y3.000 F600.0
G1 X4.500 Y3.000 F600.0
G1 X4.500 Y3.000 F600.0
G1 X4.500 Y3.000 F600.0
G1 X4.500 Y3.000 F600.0
G1 X4.500 Y3.000 F600.0
G1 X4.500 Y3.000 F600.0
G1 X4.500 Y3.000 F600.0
G1 X4.500 Y3.000 F600.0
G1 X4.566 Y0.000 F600.0
G1 X4.593 Y-0.000 F600.0
G1 X4.593 Y-0.000 F600.0
G1 X4.800 Y0.000 F600.0
G1 X4.800 Y-0.000 F600.0
G1 X4.800 Y0.000 F600.0
G1 X4.800 Y0.000 F600.0
G1 X4.800 Y-0.000 F600.0
G1 X4.800 Y-0.000 F600.0
G1 X4.800 Y0.000 F600.0
G1 X4.800 Y-0.000 F600.0
G1 X4.800 Y0.000 F600.0
G1 X4.800 Y-0.000 F600.0
G1 X4.800 Y0.000 F600.0
G1 X4.800 Y0.000 F600.0
G1 X4.800 Y0.000 F600.0
G1 X4.800 Y0.000 F600.0
G1 X4.800 Y0.000 F600.0
G1 X4.800 Y0.000 F600.0
G1 X4.800 Y0.000 F600.0
G1 X4.800 Y0.000 F600.0
G1 X4.800 Y0.000 F600.0
G1 X4.800 Y-0.000 F600.0
G1 X4.800 Y0.000 F600.0
G1 X4.800 Y0.000 F600.0
G1 X4.800 Y0.000 F600.0
G1 X4.800 Y0.000 F600.0
G1 X7.250 Y3.800 F600.0
G1 X7.250 Y3.800 F600.0
G1 X7.250 Y3.800 F600.0
G1 X7.250 Y3.800 F600.0
G1 X7.250 Y3.800 F600.0
G1 X7.250 Y3.800 F600.0
G1 X7.250 Y3.800 F600.0
G1 X7.250 Y3.800 F600.0
G1 X7.250 Y4.000 F600.0
G1 X7.250 Y4.000 F600.0
G1 X7.250 Y4.000 F600.0
G1 X7.250 Y4.000 F600.0
G1 X7.250 Y4.000 F600.0
G1 X7.250 Y4.000 F600.0
G1 X7.250 Y4.000 F600.0
G1 X7.250 Y4.000 F600.0
G1 X7.250 Y4.000 F600.0
G1 X7.250 Y4.000 F600.0
G1 X7.250 Y4.000 F600.0
G1 X7.250 Y4.000 F600.0
G1 X9.250 Y3.800 F600.0
G1 X9.250 Y3.800 F600.0
G1 X9.250 Y3.800 F600.0
G1 X9.250 Y3.800 F600.0
G1 X9.250 Y3.800 F600.0
G1 X9.250 Y3.800 F600.0
G1 X9.250 Y3.800 F600.0
G1 X9.250 Y3.800 F600.0
G1 X9.250 Y4.000 F600.0
G1 X9.250 Y4.000 F600.0
G1 X9.250 Y4.000 F600.0
G1 X9.250 Y4.000 F600.0
G1 X9.250 Y4.000 F600.0
G1 X9.250 Y4.000 F600.0
G1 X9.250 Y4.000 F600.0
G1 X9.250 Y4.000 F600.0
G1 X9.250 Y4.000 F600.0
G1 X9.250 Y4.000 F600.0
G1 X9.250 Y4.000 F600.0
G1 X9.250 Y4.000 F600.0
G1 X11.000 Y3.800 F600.0
G1 X11.000 Y3.800 F600.0
G1 X11.000 Y4.000 F600.0
G1 X11.000 Y4.000 F600.0
G1 X11.000 Y4.000 F600.0
G1 X11.000 Y4.000 F600.0
G1 X11.000 Y4.000 F600.0
G1 X11.000 Y4.000 F600.0
G1 X11.000 Y4.000 F600.0
G1 X11.000 Y4.000 F600.0
G1 X11.000 Y4.000 F600.0
G1 X11.000 Y4.000 F600.0
G1 X11.000 Y4.000 F600.0
G1 X11.000 Y4.000 F600.0
G1 X11.250 Y3.800 F600.0
G1 X11.250 Y3.800 F600.0
G1 X11.250 Y3.800 F600.0
G1 X11.250 Y3.800 F600.0
G1 X11.250 Y3.800 F600.0
G1 X11.250 Y3.800 F600.0
G1 X11.250 Y3.800 F600.0
G1 X11.250 Y3.800 F600.0
G1 X11.250 Y3.800 F600.0
G1 X11.250 Y3.800 F600.0
G1 X11.250 Y3.800 F600.0
G1 X11.250 Y3.800 F600.0
G1 X11.500 Y3.800 F600.0
G1 X11.500 Y3.800 F600.0
G1 X11.500 Y4.000 F600.0
G1 X11.500 Y4.000 F600.0
G1 X11.500 Y4.000 F600.0
G1 X11.500 Y4.000 F600.0
G1 X11.500 Y4.000 F600.0
G1 X11.500 Y4.000 F600.0
G1 X11.500 Y4.000 F600.0
G1 X11.500 Y4.000 F600.0
G1 X11.500 Y4.000 F600.0
G1 X11.500 Y4.000 F600.0
G1 X11.500 Y4.000 F600.0
G1 X11.500 Y4.000 F600.0
G1 X11.902 Y0.500 F600.0
G1 X11.902 Y1.000 F600.0
G1 X11.902 Y1.000 F600.0
G1 X11.902 Y1.000 F600.0
G1 X11.902 Y1.000 F600.0
G1 X11.902 Y3.000 F600.0
G1 X11.902 Y3.000 F600.0
G1 X11.902 Y3.900 F600.0
G1 X11.902 Y3.900 F600.0
G1 X11.902 Y3.900 F600.0
G1 X11.902 Y3.900 F600.0
G1 X11.902 Y4.000 F600.0
G1 X11.902 Y1.000 F600.0
G1 X11.902 Y3.000 F600.0
G1 X11.902 Y3.000 F600.0
G1 X11.902 Y3.000 F600.0
G1 X11.902 Y3.000 F600.0
G1 X11.902 Y3.000 F600.0
G1 X11.902 Y3.000 F600.0
G1 X11.902 Y3.000 F600.0
G1 X11.902 Y3.000 F600.0
G1 X11.902 Y3.000 F600.0
G1 X11.902 Y3.000 F600.0
G1 X11.902 Y3.900 F600.0
G1 X12.059 Y3.935 F600.0
G1 X12.216 Y3.969 F600.0
G1 X12.290 Y1.000 F600.0
G1 X12.374 Y4.000 F600.0
G1 X12.526 Y3.900 F600.0
G1 X12.526 Y4.000 F600.0
G1 X12.526 Y4.000 F600.0
G1 X12.526 Y4.000 F600.0
G1 X12.526 Y4.000 F600.0
G1 X12.526 Y4.000 F600.0
G1 X12.526 Y4.000 F600.0
G1 X12.677 Y0.895 F600.0
G1 X12.800 Y0.500 F600.0
G1 X12.800 Y3.000 F600.0
G1 X12.800 Y3.000 F600.0
G1 X12.800 Y3.000 F600.0
G1 X12.800 Y3.000 F600.0
G1 X12.800 Y4.000 F600.0
G1 X12.982 Y0.714 F600.0
G1 X13.020 Y0.000 F600.0
G1 X13.020 Y0.000 F600.0
G1 X13.020 Y0.000 F600.0
G1 X13.020 Y-0.000 F600.0
G1 X13.020 Y-0.000 F600.0
G1 X13.020 Y-0.000 F600.0
G1 X13.020 Y0.000 F600.0
G1 X13.021 Y0.000 F600.0
G1 X13.021 Y-0.000 F600.0
G1 X13.021 Y-0.000 F600.0
G1 X13.021 Y-0.000 F600.0
G1 X13.022 Y-0.000 F600.0
G1 X13.023 Y0.000 F600.0
G1 X13.023 Y0.000 F600.0
G1 X13.023 Y0.000 F600.0
G1 X13.023 Y0.000 F600.0
G1 X13.023 Y0.000 F600.0
G1 X13.023 Y-0.000 F600.0
G1 X13.023 Y-0.000 F600.0
G1 X13.023 Y-0.000 F600.0
G1 X13.023 Y-0.000 F600.0
G1 X13.024 Y0.000 F600.0
G1 X13.025 Y-0.000 F600.0
G1 X13.025 Y-0.000 F600.0
G1 X13.025 Y0.000 F600.0
G1 X13.027 Y0.000 F600.0
G1 X13.027 Y0.000 F600.0
G1 X13.027 Y-0.000 F600.0
G1 X13.027 Y-0.000 F600.0
G1 X13.027 Y0.000 F600.0
G1 X13.039 Y4.000 F600.0
G1 X13.053 Y0.000 F600.0
G1 X13.078 Y0.001 F600.0
G1 X13.104 Y0.004 F600.0
G1 X13.167 Y0.012 F600.0
G1 X13.198 Y0.301 F600.0
G1 X13.225 Y0.500 F600.0
G1 X13.225 Y0.500 F600.0
G1 X13.225 Y0.500 F600.0
G1 X13.225 Y0.500 F600.0
G1 X13.225 Y0.396 F600.0
G1 X13.225 Y0.500 F600.0
G1 X13.226 Y0.029 F600.0
G1 X13.261 Y0.044 F600.0
G1 X13.265 Y0.465 F600.0
G1 X13.287 Y0.301 F600.0
G1 X13.300 Y0.427 F600.0
G1 X13.306 Y0.071 F600.0
G1 X13.316 Y0.500 F600.0
G1 X13.316 Y0.396 F600.0
G1 X13.316 Y0.500 F600.0
G1 X13.330 Y0.387 F600.0
G1 X13.339 Y0.106 F600.0
G1 X13.349 Y0.119 F600.0
G1 X13.352 Y0.345 F600.0
G1 X13.366 Y0.301 F600.0
G1 X13.366 Y0.301 F600.0
G1 X13.366 Y0.301 F600.0
G1 X13.366 Y0.301 F600.0
G1 X13.366 Y0.301 F600.0
G1 X13.373 Y0.162 F600.0
G1 X13.375 Y0.271 F600.0
G1 X13.381 Y0.240 F600.0
G1 X13.382 Y-0.000 F600.0
G1 X13.382 Y0.208 F600.0
G1 X13.382 Y1.000 F600.0
G1 X13.397 Y0.000 F600.0
G1 X13.397 Y0.500 F600.0
G1 X13.397 Y0.500 F600.0
G1 X13.397 Y0.500 F600.0
G1 X13.397 Y0.500 F600.0
G1 X13.397 Y0.500 F600.0
G1 X13.397 Y0.500 F600.0
G1 X13.397 Y0.500 F600.0
G1 X13.397 Y3.000 F600.0
G1 X13.397 Y3.000 F600.0
G1 X13.397 Y3.000 F600.0
G1 X13.397 Y4.000 F600.0
G1 X13.397 Y4.000 F600.0
G1 X13.397 Y4.000 F600.0
G1 X13.397 Y4.000 F600.0
G1 X13.397 Y4.000 F600.0
G1 X13.397 Y0.396 F600.0
G1 X13.397 Y0.396 F600.0
G1 X13.397 Y0.500 F600.0
G1 X13.397 Y0.500 F600.0
G1 X13.397 Y3.000 F600.0
G1 X13.397 Y3.000 F600.0
G1 X13.397 Y3.000 F600.0
G1 X13.397 Y3.000 F600.0
G1 X13.397 Y3.000 F600.0
G1 X13.397 Y3.000 F600.0
G1 X13.397 Y3.000 F600.0
G1 X13.397 Y3.000 F600.0
G1 X13.397 Y3.000 F600.0
G1 X13.397 Y4.000 F600.0
G1 X14.800 Y0.500 F600.0
G1 X14.800 Y1.000 F600.0
G1 X14.800 Y1.000 F600.0
G1 X14.800 Y1.000 F600.0
G1 X14.800 Y1.000 F600.0
G1 X14.800 Y1.000 F600.0
G1 X14.800 Y3.000 F600.0
G1 X14.800 Y3.000 F600.0
G1 X14.800 Y3.000 F600.0
G1 X14.800 Y3.000 F600.0
G1 X14.800 Y3.000 F600.0
G1 X14.800 Y3.000 F600.0
G1 X15.188 Y1.000 F600.0
G1 X15.575 Y0.895 F600.0
G1 X15.792 Y-0.000 F600.0
G1 X15.880 Y0.714 F600.0
G1 X15.918 Y0.000 F600.0
G1 X15.918 Y0.000 F600.0
G1 X15.918 Y-0.000 F600.0
G1 X15.918 Y-0.000 F600.0
G1 X15.921 Y0.000 F600.0
G1 X15.921 Y0.000 F600.0
G1 X15.921 Y0.000 F600.0
G1 X15.921 Y0.000 F600.0
G1 X15.921 Y0.000 F600.0
G1 X15.921 Y0.000 F600.0
G1 X15.921 Y0.000 F600.0
G1 X15.921 Y0.000 F600.0
G1 X15.971 Y-0.000 F600.0
G1 X16.025 Y0.004 F600.0
G1 X16.076 Y-0.000 F600.0
G1 X16.079 Y0.013 F600.0
G1 X16.123 Y0.500 F600.0
G1 X16.123 Y0.500 F600.0
G1 X16.123 Y0.500 F600.0
G1 X16.123 Y-0.000 F600.0
G1 X16.123 Y0.500 F600.0
G1 X16.123 Y0.500 F600.0
G1 X16.160 Y0.042 F600.0
G1 X16.185 Y0.146 F600.0
G1 X16.193 Y0.438 F600.0
G1 X16.218 Y0.089 F600.0
G1 X16.237 Y0.110 F600.0
G1 X16.248 Y0.370 F600.0
G1 X16.282 Y0.299 F600.0
G1 X16.291 Y-0.000 F600.0
G1 X16.291 Y0.196 F600.0
G1 X16.291 Y1.000 F600.0
G1 X16.295 Y0.000 F600.0
G1 X16.295 Y0.293 F600.0
G1 X16.295 Y0.500 F600.0
G1 X16.295 Y0.500 F600.0
G1 X16.295 Y-0.000 F600.0
G1 X16.295 Y0.500 F600.0
G1 X16.295 Y0.500 F600.0
G1 X16.295 Y0.500 F600.0
G1 X16.295 Y0.500 F600.0
G1 X16.295 Y0.500 F600.0
G1 X16.295 Y0.500 F600.0
G1 X16.295 Y0.500 F600.0
G1 X16.295 Y3.000 F600.0
G1 X16.295 Y3.000 F600.0
G1 X16.295 Y3.000 F600.0
G1 X16.295 Y3.000 F600.0
G1 X16.295 Y4.000 F600.0
G1 X16.295 Y4.000 F600.0
G1 X16.295 Y4.000 F600.0
G1 X16.295 Y4.000 F600.0
G1 X16.295 Y4.000 F600.0
G1 X16.295 Y4.000 F600.0
G1 X16.295 Y3.000 F600.0
G1 X16.295 Y3.000 F600.0
G1 X16.295 Y3.000 F600.0
G1 X16.295 Y3.000 F600.0
G1 X16.295 Y3.000 F600.0
G1 X16.295 Y3.000 F600.0
G1 X16.295 Y3.000 F600.0
G1 X16.295 Y3.000 F600.0
G1 X16.300 Y0.000 F600.0
G1 X16.300 Y0.000 F600.0
G1 X16.300 Y0.000 F600.0
G1 X16.300 Y0.000 F600.0
G1 X16.300 Y0.000 F600.0
G1 X16.300 Y0.000 F600.0
G1 X16.300 Y-0.000 F600.0
G1 X16.300 Y-0.000 F600.0
G1 X16.300 Y0.000 F600.0
G1 X16.300 Y0.000 F600.0
G1 X16.300 Y0.000 F600.0
G1 X16.300 Y0.000 F600.0
G1 X16.300 Y0.000 F600.0
G1 X16.300 Y0.000 F600.0
G1 X16.300 Y0.000 F600.0
G1 X16.300 Y0.000 F600.0
G1 X16.300 Y0.000 F600.0
G1 X16.300 Y0.000 F600.0
G1 X16.300 Y-0.000 F600.0
G1 X16.300 Y-0.000 F600.0
G1 X16.300 Y-0.000 F600.0
G1 X16.300 Y0.000 F600.0
G1 X16.507 Y-0.000 F600.0
G1 X16.600 Y3.000 F600.0
G1 X16.600 Y3.000 F600.0
G1 X16.600 Y3.000 F600.0
G1 X16.600 Y3.000 F600.0
G1 X16.600 Y3.000 F600.0
G1 X16.600 Y3.000 F600.0
G1 X16.600 Y3.000 F600.0
G1 X16.600 Y3.000 F600.0
G1 X16.600 Y3.000 F600.0
G1 X16.600 Y3.000 F600.0
G1 X16.600 Y3.000 F600.0
G1 X16.600 Y3.000 F600.0
G1 X16.600 Y3.000 F600.0
G1 X16.600 Y3.000 F600.0
G1 X16.600 Y3.000 F600.0
G1 X16.600 Y3.000 F600.0
G1 X16.604 Y3.000 F600.0
G1 X16.604 Y3.000 F600.0
G1 X16.608 Y3.008 F600.0
G1 X16.611 Y3.011 F600.0
G1 X16.612 Y3.000 F600.0
G1 X16.612 Y3.000 F600.0
G1 X16.632 Y3.032 F600.0
G1 X16.634 Y3.000 F600.0
G1 X16.634 Y3.000 F600.0
G1 X16.643 Y3.043 F600.0
G1 X16.654 Y0.146 F600.0
G1 X16.664 Y3.064 F600.0
G1 X16.668 Y3.000 F600.0
G1 X16.668 Y3.000 F600.0
G1 X16.680 Y3.080 F600.0
G1 X16.688 Y3.000 F600.0
G1 X16.688 Y3.000 F600.0
G1 X16.700 Y3.100 F600.0
G1 X16.700 Y3.100 F600.0
G1 X16.722 Y3.000 F600.0
G1 X16.722 Y3.000 F600.0
G1 X16.760 Y3.000 F600.0
G1 X16.760 Y3.000 F600.0
G1 X16.773 Y3.000 F600.0
G1 X16.773 Y3.000 F600.0
G1 X16.786 Y3.000 F600.0
G1 X16.787 Y3.000 F600.0
G1 X16.800 Y3.000 F600.0
G1 X16.800 Y3.000 F600.0
G1 X16.800 Y2.800 F600.0
G1 X16.800 Y2.800 F600.0
G1 X16.800 Y2.800 F600.0
G1 X16.800 Y-0.000 F600.0
G1 X16.800 Y-0.000 F600.0
G1 X16.800 Y-0.000 F600.0
G1 X16.800 Y-0.000 F600.0
G1 X16.800 Y0.000 F600.0
G1 X16.800 Y-0.000 F600.0
G1 X16.800 Y-0.000 F600.0
G1 X16.800 Y0.293 F600.0
G1 X16.800 Y0.500 F600.0
G1 X16.800 Y0.500 F600.0
G1 X16.800 Y0.500 F600.0
G1 X16.800 Y0.500 F600.0
G1 X16.800 Y0.500 F600.0
G1 X16.800 Y0.500 F600.0
G1 X16.800 Y0.500 F600.0
G1 X16.800 Y0.500 F600.0
G1 X16.800 Y0.500 F600.0
G1 X16.800 Y0.500 F600.0
G1 X16.800 Y0.500 F600.0
G1 X16.800 Y0.500 F600.0
G1 X16.800 Y0.500 F600.0
G1 X16.800 Y0.500 F600.0
G1 X16.800 Y0.500 F600.0
G1 X16.800 Y0.500 F600.0
G1 X16.800 Y0.500 F600.0
G1 X16.800 Y0.500 F600.0
G1 X16.800 Y0.500 F600.0
G1 X16.800 Y0.500 F600.0
G1 X16.800 Y0.500 F600.0
G1 X16.800 Y0.500 F600.0
G1 X16.800 Y0.500 F600.0
G1 X16.800 Y0.500 F600.0
G1 X16.800 Y2.800 F600.0
G1 X16.800 Y2.800 F600.0
G1 X16.800 Y2.800 F600.0
G1 X16.800 Y2.800 F600.0
G1 X16.800 Y2.800 F600.0
G1 X16.800 Y2.800 F600.0
G1 X16.800 Y2.800 F600.0
G1 X16.800 Y2.800 F600.0
G1 X16.800 Y2.800 F600.0
G1 X16.800 Y2.800 F600.0
G1 X16.800 Y2.800 F600.0
G1 X16.800 Y2.800 F600.0
G1 X16.800 Y2.800 F600.0
G1 X16.800 Y2.805 F600.0
G1 X16.800 Y2.805 F600.0
G1 X16.800 Y2.814 F600.0
G1 X16.800 Y2.815 F600.0
G1 X16.800 Y2.836 F600.0
G1 X16.800 Y2.837 F600.0
G1 X16.800 Y2.868 F600.0
G1 X16.800 Y2.868 F600.0
G1 X16.800 Y2.882 F600.0
G1 X16.800 Y2.882 F600.0
G1 X16.800 Y2.898 F600.0
G1 X16.800 Y2.898 F600.0
G1 X16.800 Y2.916 F600.0
G1 X16.800 Y2.916 F600.0
G1 X16.800 Y2.916 F600.0
G1 X16.800 Y2.916 F600.0
G1 X16.800 Y2.916 F600.0
G1 X16.800 Y2.916 F600.0
G1 X16.800 Y2.931 F600.0
G1 X16.800 Y2.931 F600.0
G1 X16.800 Y2.947 F600.0
G1 X16.800 Y2.948 F600.0
G1 X16.800 Y2.964 F600.0
G1 X16.800 Y2.964 F600.0
G1 X16.800 Y2.982 F600.0
G1 X16.800 Y2.982 F600.0
G1 X16.800 Y3.000 F600.0
G1 X16.800 Y3.000 F600.0
G1 X16.800 Y3.000 F600.0
G1 X16.800 Y3.000 F600.0
G1 X16.800 Y3.000 F600.0
G1 X16.800 Y3.000 F600.0
G1 X16.800 Y3.000 F600.0
G1 X16.800 Y3.000 F600.0
G1 X16.800 Y3.000 F600.0
G1 X16.800 Y3.000 F600.0
G1 X16.800 Y3.000 F600.0
G1 X16.800 Y3.000 F600.0
G1 X16.800 Y3.000 F600.0
G1 X16.800 Y3.000 F600.0
G1 X16.800 Y3.000 F600.0
G1 X16.800 Y3.000 F600.0
G1 X16.800 Y3.000 F600.0
G1 X16.800 Y3.800 F600.0
G1 X16.800 Y3.800 F600.0
G1 X16.800 Y3.800 F600.0
G1 X16.800 Y3.800 F600.0
G1 X16.800 Y3.800 F600.0
G1 X16.800 Y4.000 F600.0
G1 X16.800 Y4.000 F600.0
G1 X16.800 Y4.000 F600.0
G1 X16.800 Y4.000 F600.0
G1 X16.800 Y4.000 F600.0
G1 X16.800 Y4.000 F600.0
G1 X16.800 Y4.000 F600.0
G1 X16.800 Y4.000 F600.0
G1 X16.800 Y4.000 F600.0
G1 X16.800 Y4.000 F600.0
G1 X16.800 Y4.000 F600.0
G1 X16.800 Y4.000 F600.0
G1 X16.800 Y4.000 F600.0
G1 X16.800 Y4.000 F600.0
G1 X16.800 Y4.000 F600.0
G1 X16.800 Y4.000 F600.0
G1 X16.800 Y3.000 F600.0
G1 X16.800 Y3.000 F600.0
G1 X16.800 Y3.000 F600.0
G1 X16.800 Y3.000 F600.0
G1 X16.800 Y3.000 F600.0
G1 X16.800 Y3.000 F600.0
G1 X16.800 Y3.000 F600.0
G1 X16.800 Y3.000 F600.0
G1 X16.800 Y3.000 F600.0
G1 X16.800 Y3.000 F600.0
G1 X16.800 Y3.000 F600.0
G1 X16.800 Y3.000 F600.0
G1 X16.800 Y3.000 F600.0
G1 X16.800 Y3.000 F600.0
G1 X16.800 Y3.000 F600.0
G1 X16.800 Y3.000 F600.0
G1 X16.800 Y3.000 F600.0
G1 X16.800 Y3.000 F600.0
G1 X16.800 Y3.000 F600.0
G1 X16.800 Y3.000 F600.0
G1 X16.800 Y3.800 F600.0
G1 X16.800 Y3.000 F600.0
G1 X16.800 Y3.000 F600.0
G1 X16.800 Y3.000 F600.0
G1 X16.800 Y3.000 F600.0
G1 X16.800 Y3.000 F600.0
G1 X16.800 Y3.000 F600.0
G1 X16.808 Y2.808 F600.0
G1 X16.811 Y2.811 F600.0
G1 X16.832 Y2.832 F600.0
G1 X16.843 Y2.843 F600.0
G1 X16.864 Y2.864 F600.0
G1 X16.880 Y2.880 F600.0
G1 X16.900 Y2.900 F600.0
G1 X16.900 Y2.900 F600.0
G1 X66.150 Y279.000 F600.0
G1 X-16.800 Y3.000 F600.0
(LAYER 2/64, Z = 31.800)
G0 Z20.0
G0 X-16.800 Y3.000
G1 Z31.800 F600.0
G1 X-16.800 Y3.000 F600.0
G1 X-16.800 Y3.000 F600.0
G1 X-16.800 Y3.000 F600.0
G1 X-16.800 Y3.000 F600.0
G1 X-16.800 Y3.000 F600.0
G1 X-16.800 Y3.000 F600.0
G1 X-16.800 Y3.000 F600.0
G1 X-16.800 Y3.000 F600.0
G1 X-16.800 Y3.000 F600.0
G1 X-16.800 Y3.000 F600.0
G1 X-16.800 Y3.000 F600.0
G1 X-16.800 Y3.000 F600.0
G1 X-16.800 Y3.000 F600.0
G1 X-16.800 Y3.000 F600.0
G1 X-16.800 Y3.000 F600.0
G1 X-16.800 Y3.000 F600.0
G1 X-16.800 Y3.000 F600.0
G1 X-16.800 Y3.000 F600.0
G1 X-16.800 Y3.000 F600.0
G1 X-16.800 Y3.000 F600.0
G1 X-16.800 Y3.000 F600.0
G1 X-16.800 Y3.000 F600.0
G1 X-16.800 Y3.000 F600.0
G1 X-16.800 Y4.000 F600.0
G1 X-16.800 Y-0.000 F600.0
G1 X-16.800 Y-0.000 F600.0
G1 X-16.800 Y-0.000 F600.0
G1 X-16.800 Y-0.000 F600.0
G1 X-16.800 Y0.000 F600.0
G1 X-16.800 Y0.000 F600.0
G1 X-16.800 Y0.000 F600.0
G1 X-16.800 Y0.000 F600.0
G1 X-16.800 Y0.500 F600.0
G1 X-16.800 Y0.500 F600.0
G1 X-16.800 Y0.500 F600.0
G1 X-16.800 Y0.500 F600.0
G1 X-16.800 Y0.500 F600.0
G1 X-16.800 Y0.500 F600.0
G1 X-16.800 Y0.500 F600.0
G1 X-16.800 Y0.500 F600.0
G1 X-16.800 Y0.500 F600.0
G1 X-16.800 Y0.500 F600.0
G1 X-16.800 Y0.500 F600.0
G1 X-16.800 Y0.500 F600.0
G1 X-16.800 Y0.500 F600.0
G1 X-16.800 Y0.500 F600.0
G1 X-16.800 Y0.500 F600.0
G1 X-16.800 Y0.500 F600.0
G1 X-16.800 Y0.500 F600.0
G1 X-16.800 Y0.500 F600.0
G1 X-16.800 Y0.500 F600.0
G1 X-16.800 Y0.500 F600.0
G1 X-16.800 Y0.500 F600.0
G1 X-16.800 Y0.500 F600.0
G1 X-16.800 Y0.500 F600.0
G1 X-16.800 Y0.500 F600.0
G1 X-16.800 Y3.000 F600.0
G1 X-16.800 Y3.000 F600.0
G1 X-16.800 Y3.000 F600.0
G1 X-16.800 Y3.000 F600.0
G1 X-16.800 Y3.000 F600.0
G1 X-16.800 Y3.000 F600.0
G1 X-16.800 Y3.000 F600.0
G1 X-16.800 Y3.000 F600.0
G1 X-16.800 Y3.000 F600.0
G1 X-16.800 Y3.000 F600.0
G1 X-16.800 Y3.000 F600.0
G1 X-16.800 Y3.800 F600.0
G1 X-16.800 Y3.800 F600.0
G1 X-16.800 Y3.800 F600.0
G1 X-16.800 Y3.800 F600.0
G1 X-16.800 Y3.800 F600.0
G1 X-16.800 Y3.800 F600.0
G1 X-16.800 Y3.800 F600.0
G1 X-16.800 Y3.800 F600.0
G1 X-16.800 Y3.800 F600.0
G1 X-16.800 Y3.800 F600.0
G1 X-16.800 Y3.800 F600.0
G1 X-16.800 Y3.800 F600.0
G1 X-16.800 Y3.800 F600.0
G1 X-16.800 Y3.800 F600.0
G1 X-16.800 Y4.000 F600.0
G1 X-16.800 Y4.000 F600.0
G1 X-16.800 Y4.000 F600.0
G1 X-16.800 Y3.000 F600.0
G1 X-16.798 Y3.000 F600.0
G1 X-16.794 Y3.000 F600.0
G1 X-16.763 Y3.837 F600.0
G1 X-16.763 Y3.837 F600.0
G1 X-16.762 Y3.000 F600.0
G1 X-16.693 Y3.907 F600.0
G1 X-16.693 Y3.907 F600.0
G1 X-16.678 Y3.000 F600.0
G1 X-16.600 Y4.000 F600.0
G1 X-16.600 Y4.000 F600.0
G1 X-16.600 Y4.000 F600.0
G1 X-16.600 Y4.000 F600.0
G1 X-16.600 Y4.000 F600.0
G1 X-16.600 Y4.000 F600.0
G1 X-16.600 Y4.000 F600.0
G1 X-16.600 Y4.000 F600.0
G1 X-16.600 Y4.000 F600.0
G1 X-16.600 Y4.000 F600.0
G1 X-16.600 Y4.000 F600.0
G1 X-16.600 Y4.000 F600.0
G1 X-16.578 Y3.000 F600.0
G1 X-16.479 Y4.000 F600.0
G1 X-16.449 Y3.000 F600.0
G1 X-16.300 Y0.000 F600.0
G1 X-16.300 Y0.000 F600.0
G1 X-16.300 Y0.000 F600.0
G1 X-16.300 Y0.000 F600.0
G1 X-16.300 Y0.000 F600.0
G1 X-16.300 Y0.000 F600.0
G1 X-16.300 Y0.000 F600.0
G1 X-16.300 Y0.000 F600.0
G1 X-16.300 Y0.000 F600.0
G1 X-16.300 Y-0.000 F600.0
G1 X-16.300 Y-0.000 F600.0
G1 X-16.300 Y0.000 F600.0
G1 X-16.300 Y-0.000 F600.0
G1 X-16.300 Y-0.000 F600.0
G1 X-16.300 Y-0.000 F600.0
G1 X-16.300 Y-0.000 F600.0
G1 X-16.300 Y-0.000 F600.0
G1 X-16.300 Y0.000 F600.0
G1 X-16.300 Y0.000 F600.0
G1 X-16.300 Y0.000 F600.0
G1 X-16.300 Y0.000 F600.0
G1 X-16.300 Y0.000 F600.0
G1 X-16.300 Y0.000 F600.0
G1 X-16.300 Y0.000 F600.0
G1 X-16.300 Y0.000 F600.0
G1 X-16.300 Y-0.000 F600.0
G1 X-16.295 Y3.000 F600.0
G1 X-16.295 Y3.000 F600.0
G1 X-16.295 Y3.000 F600.0
G1 X-16.295 Y3.000 F600.0
G1 X-16.295 Y3.000 F600.0
G1 X-16.295 Y-0.000 F600.0
G1 X-16.295 Y0.000 F600.0
G1 X-16.295 Y0.293 F600.0
G1 X-16.295 Y0.500 F600.0
G1 X-16.295 Y0.500 F600.0
G1 X-16.295 Y0.500 F600.0
G1 X-16.295 Y0.500 F600.0
G1 X-16.295 Y0.500 F600.0
G1 X-16.295 Y0.500 F600.0
G1 X-16.295 Y0.500 F600.0
G1 X-16.295 Y0.500 F600.0
G1 X-16.295 Y0.500 F600.0
G1 X-16.295 Y3.000 F600.0
G1 X-16.295 Y3.000 F600.0
G1 X-16.295 Y3.000 F600.0
G1 X-16.295 Y3.000 F600.0
G1 X-16.295 Y3.000 F600.0
G1 X-16.295 Y3.000 F600.0
G1 X-16.295 Y3.000 F600.0
G1 X-16.295 Y4.000 F600.0
G1 X-16.295 Y4.000 F600.0
G1 X-16.295 Y4.000 F600.0
G1 X-16.295 Y4.000 F600.0
G1 X-16.295 Y4.000 F600.0
G1 X-16.295 Y4.000 F600.0
G1 X-16.276 Y-0.000 F600.0
G1 X-16.276 Y0.215 F600.0
G1 X-16.276 Y1.000 F600.0
G1 X-16.276 Y0.286 F600.0
G1 X-16.274 Y0.194 F600.0
G1 X-16.262 Y0.151 F600.0
G1 X-16.248 Y0.356 F600.0
G1 X-16.237 Y0.110 F600.0
G1 X-16.230 Y4.000 F600.0
G1 X-16.218 Y0.403 F600.0
G1 X-16.218 Y0.089 F600.0
G1 X-16.214 Y3.000 F600.0
G1 X-16.214 Y3.000 F600.0
G1 X-16.185 Y0.146 F600.0
G1 X-16.178 Y0.057 F600.0
G1 X-16.178 Y0.450 F600.0
G1 X-16.131 Y0.493 F600.0
G1 X-16.128 Y0.495 F600.0
G1 X-16.128 Y0.033 F600.0
G1 X-16.125 Y0.498 F600.0
G1 X-16.123 Y-0.000 F600.0
G1 X-16.123 Y0.500 F600.0
G1 X-16.123 Y0.500 F600.0
G1 X-16.123 Y0.500 F600.0
G1 X-16.123 Y0.500 F600.0
G1 X-16.123 Y0.500 F600.0
G1 X-16.104 Y0.025 F600.0
G1 X-16.076 Y-0.000 F600.0
G1 X-16.054 Y0.011 F600.0
G1 X-16.041 Y0.572 F600.0
G1 X-16.001 Y0.003 F600.0
G1 X-15.973 Y0.001 F600.0
G1 X-15.952 Y0.641 F600.0
G1 X-15.946 Y-0.000 F600.0
G1 X-15.921 Y0.000 F600.0
G1 X-15.921 Y0.000 F600.0
G1 X-15.921 Y0.000 F600.0
G1 X-15.921 Y-0.000 F600.0
G1 X-15.921 Y-0.000 F600.0
G1 X-15.921 Y-0.000 F600.0
G1 X-15.921 Y0.000 F600.0
G1 X-15.921 Y0.000 F600.0
G1 X-15.918 Y-0.000 F600.0
G1 X-15.918 Y-0.000 F600.0
G1 X-15.918 Y-0.000 F600.0
G1 X-15.918 Y0.000 F600.0
G1 X-15.856 Y0.705 F600.0
G1 X-15.792 Y-0.000 F600.0
G1 X-15.792 Y-0.000 F600.0
G1 X-15.792 Y-0.000 F600.0
G1 X-15.628 Y3.000 F600.0
G1 X-15.628 Y3.000 F600.0
G1 X-15.612 Y0.842 F600.0
G1 X-15.424 Y4.000 F600.0
G1 X-15.424 Y4.000 F600.0
G1 X-15.424 Y4.000 F600.0
G1 X-15.424 Y4.000 F600.0
G1 X-15.424 Y3.900 F600.0
G1 X-15.424 Y4.000 F600.0
G1 X-15.424 Y4.000 F600.0
G1 X-15.331 Y0.940 F600.0
G1 X-15.272 Y4.000 F600.0
G1 X-15.159 Y0.980 F600.0
G1 X-15.114 Y3.969 F600.0
G1 X-14.979 Y1.000 F600.0
G1 X-14.957 Y3.935 F600.0
G1 X-14.800 Y1.000 F600.0
G1 X-14.800 Y3.000 F600.0
G1 X-14.800 Y3.000 F600.0
G1 X-14.800 Y3.000 F600.0
G1 X-14.800 Y3.000 F600.0
G1 X-14.800 Y3.000 F600.0
G1 X-14.800 Y3.900 F600.0
G1 X-14.800 Y0.500 F600.0
G1 X-14.800 Y1.000 F600.0
G1 X-14.800 Y1.000 F600.0
G1 X-14.800 Y1.000 F600.0
G1 X-14.800 Y1.000 F600.0
G1 X-14.800 Y3.000 F600.0
G1 X-14.800 Y3.000 F600.0
G1 X-14.800 Y3.000 F600.0
G1 X-14.800 Y3.000 F600.0
G1 X-14.800 Y3.000 F600.0
G1 X-14.800 Y3.000 F600.0
G1 X-14.800 Y3.000 F600.0
G1 X-14.800 Y3.900 F600.0
G1 X-14.800 Y3.900 F600.0
G1 X-14.800 Y3.900 F600.0
G1 X-14.800 Y3.900 F600.0
G1 X-14.800 Y4.000 F600.0
G1 X-13.397 Y0.396 F600.0
G1 X-13.397 Y0.396 F600.0
G1 X-13.397 Y0.500 F600.0
G1 X-13.397 Y0.500 F600.0
G1 X-13.397 Y3.000 F600.0
G1 X-13.397 Y3.000 F600.0
G1 X-13.397 Y3.000 F600.0
G1 X-13.397 Y3.000 F600.0
G1 X-13.397 Y3.000 F600.0
G1 X-13.397 Y3.000 F600.0
G1 X-13.397 Y3.000 F600.0
G1 X-13.397 Y3.000 F600.0
G1 X-13.397 Y3.000 F600.0
G1 X-13.397 Y3.000 F600.0
G1 X-13.397 Y4.000 F600.0
G1 X-13.397 Y4.000 F600.0
G1 X-13.397 Y4.000 F600.0
G1 X-13.397 Y4.000 F600.0
G1 X-13.397 Y4.000 F600.0
G1 X-13.397 Y4.000 F600.0
G1 X-13.397 Y0.500 F600.0
G1 X-13.397 Y0.500 F600.0
G1 X-13.397 Y0.500 F600.0
G1 X-13.397 Y0.500 F600.0
G1 X-13.397 Y0.500 F600.0
G1 X-13.397 Y0.500 F600.0
G1 X-13.397 Y3.000 F600.0
G1 X-13.397 Y3.000 F600.0
G1 X-13.397 Y0.000 F600.0
G1 X-13.397 Y0.500 F600.0
G1 X-13.387 Y-0.000 F600.0
G1 X-13.387 Y0.193 F600.0
G1 X-13.387 Y1.000 F600.0
G1 X-13.382 Y0.248 F600.0
G1 X-13.375 Y0.132 F600.0
G1 X-13.366 Y0.301 F600.0
G1 X-13.366 Y0.301 F600.0
G1 X-13.366 Y0.301 F600.0
G1 X-13.366 Y0.301 F600.0
G1 X-13.366 Y0.301 F600.0
G1 X-13.344 Y0.372 F600.0
G1 X-13.316 Y0.396 F600.0
G1 X-13.316 Y0.500 F600.0
G1 X-13.316 Y0.500 F600.0
G1 X-13.307 Y3.000 F600.0
G1 X-13.300 Y0.052 F600.0
G1 X-13.293 Y0.440 F600.0
G1 X-13.287 Y0.301 F600.0
G1 X-13.225 Y0.396 F600.0
G1 X-13.225 Y0.500 F600.0
G1 X-13.225 Y0.500 F600.0
G1 X-13.225 Y0.500 F600.0
G1 X-13.225 Y0.500 F600.0
G1 X-13.225 Y0.500 F600.0
G1 X-13.209 Y3.000 F600.0
G1 X-13.198 Y0.301 F600.0
G1 X-13.180 Y0.013 F600.0
G1 X-13.129 Y0.005 F600.0
G1 X-13.103 Y3.000 F600.0
G1 X-13.078 Y0.000 F600.0
G1 X-13.039 Y4.000 F600.0
G1 X-13.027 Y0.000 F600.0
G1 X-13.027 Y0.000 F600.0
G1 X-13.027 Y0.000 F600.0
G1 X-13.027 Y0.000 F600.0
G1 X-13.027 Y0.000 F600.0
G1 X-13.025 Y0.000 F600.0
G1 X-13.025 Y-0.000 F600.0
G1 X-13.025 Y-0.000 F600.0
G1 X-13.024 Y0.000 F600.0
G1 X-13.023 Y-0.000 F600.0
G1 X-13.023 Y0.000 F600.0
G1 X-13.023 Y0.000 F600.0
G1 X-13.023 Y0.000 F600.0
G1 X-13.023 Y0.000 F600.0
G1 X-13.023 Y0.000 F600.0
G1 X-13.023 Y-0.000 F600.0
G1 X-13.023 Y0.000 F600.0
G1 X-13.023 Y0.000 F600.0
G1 X-13.022 Y-0.000 F600.0
G1 X-13.021 Y0.000 F600.0
G1 X-13.021 Y0.000 F600.0
G1 X-13.021 Y-0.000 F600.0
G1 X-13.021 Y0.000 F600.0
G1 X-13.020 Y0.000 F600.0
G1 X-13.020 Y0.000 F600.0
G1 X-13.020 Y0.000 F600.0
G1 X-13.020 Y-0.000 F600.0
G1 X-13.020 Y0.000 F600.0
G1 X-13.020 Y-0.000 F600.0
G1 X-13.020 Y-0.000 F600.0
G1 X-12.982 Y0.714 F600.0
G1 X-12.821 Y3.000 F600.0
G1 X-12.800 Y0.500 F600.0
G1 X-12.800 Y3.000 F600.0
G1 X-12.800 Y3.000 F600.0
G1 X-12.800 Y3.000 F600.0
G1 X-12.800 Y4.000 F600.0
G1 X-12.677 Y0.895 F600.0
G1 X-12.526 Y3.900 F600.0
G1 X-12.526 Y4.000 F600.0
G1 X-12.526 Y4.000 F600.0
G1 X-12.526 Y4.000 F600.0
G1 X-12.526 Y4.000 F600.0
G1 X-12.526 Y4.000 F600.0
G1 X-12.526 Y4.000 F600.0
G1 X-12.505 Y3.000 F600.0
G1 X-12.374 Y4.000 F600.0
G1 X-12.307 Y3.000 F600.0
G1 X-12.290 Y1.000 F600.0
G1 X-12.216 Y3.969 F600.0
G1 X-12.104 Y3.000 F600.0
G1 X-12.059 Y3.935 F600.0
G1 X-11.902 Y1.000 F600.0
G1 X-11.902 Y3.000 F600.0
G1 X-11.902 Y3.000 F600.0
G1 X-11.902 Y3.000 F600.0
G1 X-11.902 Y3.000 F600.0
G1 X-11.902 Y3.000 F600.0
G1 X-11.902 Y3.000 F600.0
G1 X-11.902 Y3.000 F600.0
G1 X-11.902 Y3.000 F600.0
G1 X-11.902 Y3.000 F600.0
G1 X-11.902 Y3.000 F600.0
G1 X-11.902 Y3.900 F600.0
G1 X-11.902 Y0.500 F600.0
G1 X-11.902 Y1.000 F600.0
G1 X-11.902 Y1.000 F600.0
G1 X-11.902 Y1.000 F600.0
G1 X-11.902 Y1.000 F600.0
G1 X-11.902 Y3.000 F600.0
G1 X-11.902 Y3.000 F600.0
G1 X-11.902 Y3.900 F600.0
G1 X-11.902 Y3.900 F600.0
G1 X-11.902 Y3.900 F600.0
G1 X-11.902 Y3.900 F600.0
G1 X-11.902 Y4.000 F600.0
G1 X-11.500 Y3.800 F600.0
G1 X-11.500 Y3.800 F600.0
G1 X-11.500 Y4.000 F600.0
G1 X-11.500 Y4.000 F600.0
G1 X-11.500 Y4.000 F600.0
G1 X-11.500 Y4.000 F600.0
G1 X-11.500 Y4.000 F600.0
G1 X-11.500 Y4.000 F600.0
G1 X-11.500 Y4.000 F600.0
G1 X-11.500 Y4.000 F600.0
G1 X-11.500 Y4.000 F600.0
G1 X-11.500 Y4.000 F600.0
G1 X-11.500 Y4.000 F600.0
G1 X-11.500 Y4.000 F600.0
G1 X-11.250 Y3.800 F600.0
G1 X-11.250 Y3.800 F600.0
G1 X-11.250 Y3.800 F600.0
G1 X-11.250 Y3.800 F600.0
G1 X-11.250 Y3.800 F600.0
G1 X-11.250 Y3.800 F600.0
G1 X-11.250 Y3.800 F600.0
G1 X-11.250 Y3.800 F600.0
G1 X-11.250 Y3.800 F600.0
G1 X-11.250 Y3.800 F600.0
G1 X-11.250 Y3.800 F600.0
G1 X-11.250 Y3.800 F600.0
G1 X-11.000 Y3.800 F600.0
G1 X-11.000 Y3.800 F600.0
G1 X-11.000 Y4.000 F600.0
G1 X-11.000 Y4.000 F600.0
G1 X-11.000 Y4.000 F600.0
G1 X-11.000 Y4.000 F600.0
G1 X-11.000 Y4.000 F600.0
G1 X-11.000 Y4.000 F600.0
G1 X-11.000 Y4.000 F600.0
G1 X-11.000 Y4.000 F600.0
G1 X-11.000 Y4.000 F600.0
G1 X-11.000 Y4.000 F600.0
G1 X-11.000 Y4.000 F600.0
G1 X-11.000 Y4.000 F600.0
G1 X-9.250 Y3.800 F600.0
G1 X-9.250 Y3.800 F600.0
G1 X-9.250 Y3.800 F600.0
G1 X-9.250 Y3.800 F600.0
G1 X-9.250 Y3.800 F600.0
G1 X-9.250 Y3.800 F600.0
G1 X-9.250 Y3.800 F600.0
G1 X-9.250 Y3.800 F600.0
G1 X-9.250 Y4.000 F600.0
G1 X-9.250 Y4.000 F600.0
G1 X-9.250 Y4.000 F600.0
G1 X-9.250 Y4.000 F600.0
G1 X-9.250 Y4.000 F600.0
G1 X-9.250 Y4.000 F600.0
G1 X-9.250 Y4.000 F600.0
G1 X-9.250 Y4.000 F600.0
G1 X-9.250 Y4.000 F600.0
G1 X-9.250 Y4.000 F600.0
G1 X-9.250 Y4.000 F600.0
G1 X-9.250 Y4.000 F600.0
G1 X-7.250 Y3.800 F600.0
G1 X-7.250 Y3.800 F600.0
G1 X-7.250 Y3.800 F600.0
G1 X-7.250 Y3.800 F600.0
G1 X-7.250 Y3.800 F600.0
G1 X-7.250 Y3.800 F600.0
G1 X-7.250 Y3.800 F600.0
G1 X-7.250 Y3.800 F600.0
G1 X-7.250 Y4.000 F600.0
G1 X-7.250 Y4.000 F600.0
G1 X-7.250 Y4.000 F600.0
G1 X-7.250 Y4.000 F600.0
G1 X-7.250 Y4.000 F600.0
G1 X-7.250 Y4.000 F600.0
G1 X-7.250 Y4.000 F600.0
G1 X-7.250 Y4.000 F600.0
G1 X-7.250 Y4.000 F600.0
G1 X-7.250 Y4.000 F600.0
G1 X-7.250 Y4.000 F600.0
G1 X-7.250 Y4.000 F600.0
G1 X-4.800 Y0.000 F600.0
G1 X-4.800 Y0.000 F600.0
G1 X-4.800 Y-0.000 F600.0
G1 X-4.800 Y0.000 F600.0
G1 X-4.800 Y0.000 F600.0
G1 X-4.800 Y0.000 F600.0
G1 X-4.800 Y0.000 F600.0
G1 X-4.800 Y0.000 F600.0
G1 X-4.800 Y0.000 F600.0
G1 X-4.800 Y0.000 F600.0
G1 X-4.800 Y0.000 F600.0
G1 X-4.800 Y0.000 F600.0
G1 X-4.800 Y0.000 F600.0
G1 X-4.800 Y0.000 F600.0
G1 X-4.800 Y-0.000 F600.0
G1 X-4.800 Y0.000 F600.0
G1 X-4.800 Y-0.000 F600.0
G1 X-4.800 Y0.000 F600.0
G1 X-4.800 Y-0.000 F600.0
G1 X-4.800 Y0.000 F600.0
G1 X-4.800 Y0.000 F600.0
G1 X-4.800 Y-0.000 F600.0
G1 X-4.800 Y-0.000 F600.0
G1 X-4.800 Y0.000 F600.0
G1 X-4.593 Y-0.000 F600.0
G1 X-4.593 Y-0.000 F600.0
G1 X-4.566 Y0.000 F600.0
G1 X-4.500 Y4.000 F600.0
G1 X-4.500 Y4.000 F600.0
G1 X-4.500 Y4.000 F600.0
G1 X-4.500 Y4.000 F600.0
G1 X-4.500 Y4.000 F600.0
G1 X-4.500 Y4.000 F600.0
G1 X-4.500 Y4.000 F600.0
G1 X-4.500 Y4.000 F600.0
G1 X-4.500 Y4.000 F600.0
G1 X-4.500 Y4.000 F600.0
G1 X-4.500 Y4.000 F600.0
G1 X-4.500 Y4.000 F600.0
G1 X-4.500 Y4.000 F600.0
G1 X-4.500 Y4.000 F600.0
G1 X-4.499 Y3.999 F600.0
G1 X-4.496 Y3.996 F600.0
G1 X-4.487 Y3.987 F600.0
G1 X-4.474 Y3.974 F600.0
G1 X-4.464 Y3.964 F600.0
G1 X-4.447 Y3.947 F600.0
G1 X-4.446 Y0.146 F600.0
G1 X-4.446 Y0.146 F600.0
G1 X-4.427 Y3.927 F600.0
G1 X-4.418 Y3.918 F600.0
G1 X-4.409 Y3.909 F600.0
G1 X-4.400 Y3.900 F600.0
G1 X-4.400 Y3.900 F600.0
G1 X-4.400 Y3.900 F600.0
G1 X-4.400 Y3.900 F600.0
G1 X-4.400 Y3.900 F600.0
G1 X-4.400 Y4.000 F600.0
G1 X-4.400 Y4.000 F600.0
G1 X-4.354 Y4.000 F600.0
G1 X-4.331 Y0.000 F600.0
G1 X-4.300 Y0.500 F600.0
G1 X-4.300 Y3.000 F600.0
G1 X-4.300 Y3.000 F600.0
G1 X-4.300 Y0.000 F600.0
G1 X-4.300 Y0.500 F600.0
G1 X-4.300 Y3.000 F600.0
G1 X-4.300 Y3.000 F600.0
G1 X-4.300 Y3.000 F600.0
G1 X-4.300 Y3.000 F600.0
G1 X-4.300 Y3.000 F600.0
G1 X-4.300 Y3.000 F600.0
G1 X-4.300 Y3.000 F600.0
G1 X-4.300 Y3.000 F600.0
G1 X-4.300 Y3.000 F600.0
G1 X-4.300 Y3.000 F600.0
G1 X-4.300 Y3.000 F600.0
G1 X-4.300 Y3.000 F600.0
G1 X-4.300 Y3.000 F600.0
G1 X-4.300 Y3.000 F600.0
G1 X-4.300 Y3.000 F600.0
G1 X-4.300 Y3.000 F600.0
G1 X-4.300 Y3.000 F600.0
G1 X-4.300 Y3.000 F600.0
G1 X-4.300 Y3.800 F600.0
G1 X-4.300 Y0.000 F600.0
G1 X-4.300 Y0.000 F600.0
G1 X-4.300 Y-0.000 F600.0
G1 X-4.300 Y-0.000 F600.0
G1 X-4.300 Y0.000 F600.0
G1 X-4.300 Y0.293 F600.0
G1 X-4.300 Y0.293 F600.0
G1 X-4.300 Y0.500 F600.0
G1 X-4.300 Y0.500 F600.0
G1 X-4.300 Y0.500 F600.0
G1 X-4.300 Y0.500 F600.0
G1 X-4.300 Y0.500 F600.0
G1 X-4.300 Y0.500 F600.0
G1 X-4.300 Y0.500 F600.0
G1 X-4.300 Y0.500 F600.0
G1 X-4.300 Y0.500 F600.0
G1 X-4.300 Y0.500 F600.0
G1 X-4.300 Y0.500 F600.0
G1 X-4.300 Y0.500 F600.0
G1 X-4.300 Y0.500 F600.0
G1 X-4.300 Y0.500 F600.0
G1 X-4.300 Y0.500 F600.0
G1 X-4.300 Y0.500 F600.0
G1 X-4.300 Y0.500 F600.0
G1 X-4.300 Y0.500 F600.0
G1 X-4.300 Y0.500 F600.0
G1 X-4.300 Y0.500 F600.0
G1 X-4.300 Y0.500 F600.0
G1 X-4.300 Y0.500 F600.0
G1 X-4.300 Y3.000 F600.0
G1 X-4.300 Y3.000 F600.0
G1 X-4.300 Y3.000 F600.0
G1 X-4.300 Y3.000 F600.0
G1 X-4.300 Y3.000 F600.0
G1 X-4.300 Y3.000 F600.0
G1 X-4.300 Y3.000 F600.0
G1 X-4.300 Y3.000 F600.0
G1 X-4.300 Y3.000 F600.0
G1 X-4.300 Y3.800 F600.0
G1 X-4.300 Y3.800 F600.0
G1 X-4.300 Y3.800 F600.0
G1 X-4.300 Y3.800 F600.0
G1 X-4.300 Y3.800 F600.0
G1 X-4.300 Y3.800 F600.0
G1 X-4.300 Y3.800 F600.0
G1 X-4.300 Y3.800 F600.0
G1 X-4.300 Y3.800 F600.0
G1 X-4.300 Y3.800 F600.0
G1 X-4.300 Y3.800 F600.0
G1 X-4.300 Y3.800 F600.0
G1 X-4.300 Y3.800 F600.0
G1 X-4.300 Y3.800 F600.0
G1 X-4.300 Y3.800 F600.0
G1 X-4.300 Y3.900 F600.0
G1 X-4.300 Y3.000 F600.0
G1 X-4.300 Y3.800 F600.0
G1 X-4.300 Y3.800 F600.0
G1 X-4.212 Y3.000 F600.0
G1 X-4.212 Y0.500 F600.0
G1 X-4.207 Y4.000 F600.0
G1 X-4.124 Y3.000 F600.0
G1 X-4.124 Y0.500 F600.0
G1 X-4.000 Y-0.000 F600.0
G1 X-4.000 Y0.000 F600.0
G1 X-4.000 Y0.500 F600.0
G1 X-4.000 Y0.500 F600.0
G1 X-4.000 Y0.500 F600.0
G1 X-4.000 Y0.500 F600.0
G1 X-4.000 Y0.500 F600.0
G1 X-4.000 Y0.500 F600.0
G1 X-4.000 Y3.000 F600.0
G1 X-4.000 Y0.000 F600.0
G1 X-4.000 Y0.000 F600.0
G1 X-4.000 Y0.000 F600.0
G1 X-4.000 Y0.000 F600.0
G1 X-4.000 Y0.000 F600.0
G1 X-4.000 Y0.000 F600.0
G1 X-4.000 Y0.000 F600.0
G1 X-4.000 Y-0.000 F600.0
G1 X-4.000 Y0.000 F600.0
G1 X-4.000 Y-0.000 F600.0
G1 X-4.000 Y-0.000 F600.0
G1 X-4.000 Y-0.000 F600.0
G1 X-4.000 Y0.000 F600.0
G1 X-4.000 Y0.000 F600.0
G1 X-4.000 Y-0.000 F600.0
G1 X-4.000 Y0.000 F600.0
G1 X-4.000 Y0.000 F600.0
G1 X-4.000 Y-0.000 F600.0
G1 X-4.000 Y0.000 F600.0
G1 X-4.000 Y0.000 F600.0
G1 X-4.000 Y0.146 F600.0
G1 X-4.000 Y0.293 F600.0
G1 X-4.000 Y0.500 F600.0
G1 X-4.000 Y0.500 F600.0
G1 X-4.000 Y0.500 F600.0
G1 X-4.000 Y0.500 F600.0
G1 X-4.000 Y0.500 F600.0
G1 X-4.000 Y0.500 F600.0
G1 X-4.000 Y0.500 F600.0
G1 X-4.000 Y0.500 F600.0
G1 X-4.000 Y0.500 F600.0
G1 X-4.000 Y0.500 F600.0
G1 X-4.000 Y0.500 F600.0
G1 X-4.000 Y0.500 F600.0
G1 X-4.000 Y3.000 F600.0
G1 X-4.000 Y3.000 F600.0
G1 X-4.000 Y3.000 F600.0
G1 X-4.000 Y3.000 F600.0
G1 X-4.000 Y3.000 F600.0
G1 X-4.000 Y3.000 F600.0
G1 X-4.000 Y3.000 F600.0
G1 X-4.000 Y3.000 F600.0
G1 X-4.000 Y3.000 F600.0
G1 X-4.000 Y3.000 F600.0
G1 X-4.000 Y3.000 F600.0
G1 X-4.000 Y3.000 F600.0
G1 X-4.000 Y3.000 F600.0
G1 X-4.000 Y3.000 F600.0
G1 X-4.000 Y3.000 F600.0
G1 X-4.000 Y3.000 F600.0
G1 X-4.000 Y3.000 F600.0
G1 X-4.000 Y3.800 F600.0
G1 X-4.000 Y3.800 F600.0
G1 X-4.000 Y3.800 F600.0
G1 X-4.000 Y3.800 F600.0
G1 X-4.000 Y3.800 F600.0
G1 X-4.000 Y3.800 F600.0
G1 X-4.000 Y3.800 F600.0
G1 X-4.000 Y3.800 F600.0
G1 X-4.000 Y3.800 F600.0
G1 X-4.000 Y4.000 F600.0
G1 X-4.000 Y4.000 F600.0
G1 X-4.000 Y4.000 F600.0
G1 X-4.000 Y4.000 F600.0
G1 X-4.000 Y4.000 F600.0
G1 X-4.000 Y4.000 F600.0
G1 X0.000 Y0.000 F600.0
G1 X0.000 Y0.000 F600.0
G1 X4.000 Y0.000 F600.0
G1 X4.000 Y0.000 F600.0
G1 X4.000 Y0.000 F600.0
G1 X4.000 Y0.000 F600.0
G1 X4.000 Y0.000 F600.0
G1 X4.000 Y0.000 F600.0
G1 X4.000 Y0.000 F600.0
G1 X4.000 Y0.000 F600.0
G1 X4.000 Y-0.000 F600.0
G1 X4.000 Y0.000 F600.0
G1 X4.000 Y0.000 F600.0
G1 X4.000 Y-0.000 F600.0
G1 X4.000 Y-0.000 F600.0
G1 X4.000 Y0.000 F600.0
G1 X4.000 Y-0.000 F600.0
G1 X4.000 Y0.000 F600.0
G1 X4.000 Y0.000 F600.0
G1 X4.000 Y-0.000 F600.0
G1 X4.000 Y-0.000 F600.0
G1 X4.000 Y-0.000 F600.0
G1 X4.000 Y0.000 F600.0
G1 X4.000 Y0.000 F600.0
G1 X4.000 Y0.146 F600.0
G1 X4.000 Y0.293 F600.0
G1 X4.000 Y0.500 F600.0
G1 X4.000 Y0.500 F600.0
G1 X4.000 Y0.500 F600.0
G1 X4.000 Y0.500 F600.0
G1 X4.000 Y0.500 F600.0
G1 X4.000 Y0.500 F600.0
G1 X4.000 Y0.500 F600.0
G1 X4.000 Y0.500 F600.0
G1 X4.000 Y0.500 F600.0
G1 X4.000 Y0.500 F600.0
G1 X4.000 Y0.500 F600.0
G1 X4.000 Y0.500 F600.0
G1 X4.000 Y0.500 F600.0
G1 X4.000 Y3.000 F600.0
G1 X4.000 Y3.000 F600.0
G1 X4.000 Y3.000 F600.0
G1 X4.000 Y3.000 F600.0
G1 X4.000 Y3.000 F600.0
G1 X4.000 Y3.000 F600.0
G1 X4.000 Y3.000 F600.0
G1 X4.000 Y3.000 F600.0
G1 X4.000 Y3.000 F600.0
G1 X4.000 Y3.000 F600.0
G1 X4.000 Y3.000 F600.0
G1 X4.000 Y0.500 F600.0
G1 X4.000 Y0.500 F600.0
G1 X4.000 Y0.500 F600.0
G1 X4.000 Y0.500 F600.0
G1 X4.000 Y0.500 F600.0
G1 X4.000 Y3.000 F600.0
G1 X4.198 Y2.902 F600.0
G1 X4.198 Y2.902 F600.0
G1 X4.198 Y2.902 F600.0
G1 X4.198 Y2.902 F600.0
G1 X4.199 Y2.901 F600.0
G1 X4.211 Y2.889 F600.0
G1 X4.223 Y2.877 F600.0
G1 X4.234 Y2.866 F600.0
G1 X4.235 Y2.865 F600.0
G1 X4.252 Y3.000 F600.0
G1 X4.252 Y3.000 F600.0
G1 X4.255 Y2.845 F600.0
G1 X4.267 Y2.833 F600.0
G1 X4.271 Y2.829 F600.0
G1 X4.278 Y2.822 F600.0
G1 X4.288 Y2.812 F600.0
G1 X4.289 Y2.811 F600.0
G1 X4.296 Y3.000 F600.0
G1 X4.296 Y3.000 F600.0
G1 X4.296 Y3.000 F600.0
G1 X4.296 Y3.000 F600.0
G1 X4.296 Y3.000 F600.0
G1 X4.296 Y3.000 F600.0
G1 X4.296 Y3.000 F600.0
G1 X4.296 Y3.000 F600.0
G1 X4.296 Y2.804 F600.0
G1 X4.298 Y2.970 F600.0
G1 X4.298 Y2.970 F600.0
G1 X4.299 Y2.801 F600.0
G1 X4.300 Y0.000 F600.0
G1 X4.300 Y0.500 F600.0
G1 X4.300 Y0.500 F600.0
G1 X4.300 Y2.800 F600.0
G1 X4.300 Y2.800 F600.0
G1 X4.300 Y2.800 F600.0
G1 X4.300 Y2.800 F600.0
G1 X4.300 Y2.800 F600.0
G1 X4.300 Y2.800 F600.0
G1 X4.300 Y2.800 F600.0
G1 X4.300 Y2.800 F600.0
G1 X4.300 Y0.000 F600.0
G1 X4.300 Y0.000 F600.0
G1 X4.300 Y0.000 F600.0
G1 X4.300 Y-0.000 F600.0
G1 X4.300 Y-0.000 F600.0
G1 X4.300 Y0.293 F600.0
G1 X4.300 Y0.293 F600.0
G1 X4.300 Y0.500 F600.0
G1 X4.300 Y0.500 F600.0
G1 X4.300 Y0.500 F600.0
G1 X4.300 Y0.500 F600.0
G1 X4.300 Y0.500 F600.0
G1 X4.300 Y0.500 F600.0
G1 X4.300 Y0.500 F600.0
G1 X4.300 Y0.500 F600.0
G1 X4.300 Y0.500 F600.0
G1 X4.300 Y0.500 F600.0
G1 X4.300 Y0.500 F600.0
G1 X4.300 Y0.500 F600.0
G1 X4.300 Y0.500 F600.0
G1 X4.300 Y0.500 F600.0
G1 X4.300 Y0.500 F600.0
G1 X4.300 Y0.500 F600.0
G1 X4.300 Y0.500 F600.0
G1 X4.300 Y0.500 F600.0
G1 X4.300 Y0.500 F600.0
G1 X4.300 Y0.500 F600.0
G1 X4.300 Y0.500 F600.0
G1 X4.300 Y0.500 F600.0
G1 X4.300 Y2.800 F600.0
G1 X4.300 Y2.800 F600.0
G1 X4.300 Y2.800 F600.0
G1 X4.300 Y2.800 F600.0
G1 X4.300 Y2.800 F600.0
G1 X4.300 Y2.800 F600.0
G1 X4.300 Y2.800 F600.0
G1 X4.300 Y2.800 F600.0
G1 X4.300 Y2.848 F600.0
G1 X4.300 Y2.848 F600.0
G1 X4.300 Y2.916 F600.0
G1 X4.300 Y2.916 F600.0
G1 X4.300 Y2.916 F600.0
G1 X4.300 Y2.916 F600.0
G1 X4.300 Y2.916 F600.0
G1 X4.300 Y2.916 F600.0
G1 X4.300 Y2.916 F600.0
G1 X4.300 Y2.916 F600.0
G1 X4.300 Y2.916 F600.0
G1 X4.300 Y2.916 F600.0
G1 X4.300 Y2.941 F600.0
G1 X4.300 Y2.941 F600.0
G1 X4.300 Y3.000 F600.0
G1 X4.300 Y3.000 F600.0
G1 X4.300 Y3.000 F600.0
G1 X4.300 Y3.000 F600.0
G1 X4.310 Y3.000 F600.0
G1 X4.310 Y3.000 F600.0
G1 X4.323 Y3.000 F600.0
G1 X4.323 Y3.000 F600.0
G1 X4.331 Y0.000 F600.0
G1 X4.337 Y3.000 F600.0
G1 X4.337 Y3.000 F600.0
G1 X4.376 Y3.000 F600.0
G1 X4.376 Y3.000 F600.0
G1 X4.398 Y3.102 F600.0
G1 X4.398 Y3.102 F600.0
G1 X4.398 Y3.102 F600.0
G1 X4.398 Y3.102 F600.0
G1 X4.399 Y3.101 F600.0
G1 X4.410 Y3.000 F600.0
G1 X4.410 Y3.000 F600.0
G1 X4.411 Y3.089 F600.0
G1 X4.423 Y3.077 F600.0
G1 X4.431 Y3.000 F600.0
G1 X4.431 Y3.000 F600.0
G1 X4.434 Y3.066 F600.0
G1 X4.435 Y3.065 F600.0
G1 X4.446 Y0.146 F600.0
G1 X4.446 Y0.146 F600.0
G1 X4.455 Y3.045 F600.0
G1 X4.465 Y3.000 F600.0
G1 X4.466 Y3.000 F600.0
G1 X4.467 Y3.033 F600.0
G1 X4.471 Y3.029 F600.0
G1 X4.478 Y3.022 F600.0
G1 X4.487 Y3.000 F600.0
G1 X4.488 Y3.000 F600.0
G1 X4.488 Y3.012 F600.0
G1 X4.489 Y3.011 F600.0
G1 X4.496 Y3.000 F600.0
G1 X4.496 Y3.000 F600.0
G1 X4.496 Y3.004 F600.0
G1 X4.499 Y3.001 F600.0
G1 X4.500 Y3.000 F600.0
G1 X4.500 Y3.000 F600.0
G1 X4.500 Y3.000 F600.0
G1 X4.500 Y3.000 F600.0
G1 X4.500 Y3.000 F600.0
G1 X4.500 Y3.000 F600.0
G1 X4.500 Y3.000 F600.0
G1 X4.500 Y3.000 F600.0
G1 X4.500 Y3.000 F600.0
G1 X4.500 Y3.000 F600.0
G1 X4.500 Y3.000 F600.0
G1 X4.500 Y3.000 F600.0
G1 X4.500 Y3.000 F600.0
G1 X4.500 Y3.000 F600.0
G1 X4.500 Y3.000 F600.0
G1 X4.500 Y3.000 F600.0
G1 X4.566 Y0.000 F600.0
G1 X4.593 Y-0.000 F600.0
G1 X4.593 Y-0.000 F600.0
G1 X4.800 Y0.000 F600.0
G1 X4.800 Y-0.000 F600.0
G1 X4.800 Y0.000 F600.0
G1 X4.800 Y0.000 F600.0
G1 X4.800 Y-0.000 F600.0
G1 X4.800 Y-0.000 F600.0
G1 X4.800 Y0.000 F600.0
G1 X4.800 Y-0.000 F600.0
G1 X4.800 Y0.000 F600.0
G1 X4.800 Y-0.000 F600.0
G1 X4.800 Y0.000 F600.0
G1 X4.800 Y0.000 F600.0
G1 X4.800 Y0.000 F600.0
G1 X4.800 Y0.000 F600.0
G1 X4.800 Y0.000 F600.0
G1 X4.800 Y0.000 F600.0
G1 X4.800 Y0.000 F600.0
G1 X4.800 Y0.000 F600.0
G1 X4.800 Y0.000 F600.0
G1 X4.800 Y-0.000 F600.0
G1 X4.800 Y0.000 F600.0
G1 X4.800 Y0.000 F600.0
G1 X4.800 Y0.000 F600.0
G1 X4.800 Y0.000 F600.0
G1 X7.250 Y3.800 F600.0
G1 X7.250 Y3.800 F600.0
G1 X7.250 Y3.800 F600.0
G1 X7.250 Y3.800 F600.0
G1 X7.250 Y3.800 F600.0
G1 X7.250 Y3.800 F600.0
G1 X7.250 Y3.800 F600.0
G1 X7.250 Y3.800 F600.0
G1 X7.250 Y4.000 F600.0
G1 X7.250 Y4.000 F600.0
G1 X7.250 Y4.000 F600.0
G1 X7.250 Y4.000 F600.0
G1 X7.250 Y4.000 F600.0
G1 X7.250 Y4.000 F600.0
G1 X7.250 Y4.000 F600.0
G1 X7.250 Y4.000 F600.0
G1 X7.250 Y4.000 F600.0
G1 X7.250 Y4.000 F600.0
G1 X7.250 Y4.000 F600.0
G1 X7.250 Y4.000 F600.0
G1 X9.250 Y3.800 F600.0
G1 X9.250 Y3.800 F600.0
G1 X9.250 Y3.800 F600.0
G1 X9.250 Y3.800 F600.0
G1 X9.250 Y3.800 F600.0
G1 X9.250 Y3.800 F600.0
G1 X9.250 Y3.800 F600.0
G1 X9.250 Y3.800 F600.0
G1 X9.250 Y4.000 F600.0
G1 X9.250 Y4.000 F600.0
G1 X9.250 Y4.000 F600.0
G1 X9.250 Y4.000 F600.0
G1 X9.250 Y4.000 F600.0
G1 X9.250 Y4.000 F600.0
G1 X9.250 Y4.000 F600.0
G1 X9.250 Y4.000 F600.0
G1 X9.250 Y4.000 F600.0
G1 X9.250 Y4.000 F600.0
G1 X9.250 Y4.000 F600.0
G1 X9.250 Y4.000 F600.0
G1 X11.000 Y3.800 F600.0
G1 X11.000 Y3.800 F600.0
G1 X11.000 Y4.000 F600.0
G1 X11.000 Y4.000 F600.0
G1 X11.000 Y4.000 F600.0
G1 X11.000 Y4.000 F600.0
G1 X11.000 Y4.000 F600.0
G1 X11.000 Y4.000 F600.0
G1 X11.000 Y4.000 F600.0
G1 X11.000 Y4.000 F600.0
G1 X11.000 Y4.000 F600.0
G1 X11.000 Y4.000 F600.0
G1 X11.000 Y4.000 F600.0
G1 X11.000 Y4.000 F600.0
G1 X11.250 Y3.800 F600.0
G1 X11.250 Y3.800 F600.0
G1 X11.250 Y3.800 F600.0
G1 X11.250 Y3.800 F600.0
G1 X11.250 Y3.800 F600.0
G1 X11.250 Y3.800 F600.0
G1 X11.250 Y3.800 F600.0
G1 X11.250 Y3.800 F600.0
G1 X11.250 Y3.800 F600.0
G1 X11.250 Y3.800 F600.0
G1 X11.250 Y3.800 F600.0
G1 X11.250 Y3.800 F600.0
G1 X11.500 Y3.800 F600.0
G1 X11.500 Y3.800 F600.0
G1 X11.500 Y4.000 F600.0
G1 X11.500 Y4.000 F600.0
G1 X11.500 Y4.000 F600.0
G1 X11.500 Y4.000 F600.0
G1 X11.500 Y4.000 F600.0
G1 X11.500 Y4.000 F600.0
G1 X11.500 Y4.000 F600.0
G1 X11.500 Y4.000 F600.0
G1 X11.500 Y4.000 F600.0
G1 X11.500 Y4.000 F600.0
G1 X11.500 Y4.000 F600.0
G1 X11.500 Y4.000 F600.0
G1 X11.902 Y0.500 F600.0
G1 X11.902 Y1.000 F600.0
G1 X11.902 Y1.000 F600.0
G1 X11.902 Y1.000 F600.0
G1 X11.902 Y1.000 F600.0
G1 X11.902 Y3.000 F600.0
G1 X11.902 Y3.000 F600.0
G1 X11.902 Y3.900 F600.0
G1 X11.902 Y3.900 F600.0
G1 X11.902 Y3.900 F600.0
G1 X11.902 Y3.900 F600.0
G1 X11.902 Y4.000 F600.0
G1 X11.902 Y1.000 F600.0
G1 X11.902 Y3.000 F600.0
G1 X11.902 Y3.000 F600.0
G1 X11.902 Y3.000 F600.0
G1 X11.902 Y3.000 F600.0
G1 X11.902 Y3.000 F600.0
G1 X11.902 Y3.000 F600.0
G1 X11.902 Y3.000 F600.0
G1 X11.902 Y3.000 F600.0
G1 X11.902 Y3.000 F600.0
G1 X11.902 Y3.000 F600.0
G1 X11.902 Y3.900 F600.0
G1 X12.059 Y3.935 F600.0
G1 X12.216 Y3.969 F600.0
G1 X12.290 Y1.000 F600.0
G1 X12.374 Y4.000 F600.0
G1 X12.526 Y3.900 F600.0
G1 X12.526 Y4.000 F600.0
G1 X12.526 Y4.000 F600.0
G1 X12.526 Y4.000 F600.0
G1 X12.526 Y4.000 F600.0
G1 X12.526 Y4.000 F600.0
G1 X12.526 Y4.000 F600.0
G1 X12.677 Y0.895 F600.0
G1 X12.800 Y0.500 F600.0
G1 X12.800 Y3.000 F600.0
G1 X12.800 Y3.000 F600.0
G1 X12.800 Y3.000 F600.0
G1 X12.800 Y3.000 F600.0
G1 X12.800 Y4.000 F600.0
G1 X12.982 Y0.714 F600.0
G1 X13.020 Y0.000 F600.0
G1 X13.020 Y0.000 F600.0
G1 X13.020 Y0.000 F600.0
G1 X13.020 Y-0.000 F600.0
G1 X13.020 Y-0.000 F600.0
G1 X13.020 Y-0.000 F600.0
G1 X13.020 Y0.000 F600.0
G1 X13.021 Y0.000 F600.0
G1 X13.021 Y-0.000 F600.0
G1 X13.021 Y-0.000 F600.0
G1 X13.021 Y-0.000 F600.0
G1 X13.022 Y-0.000 F600.0
G1 X13.023 Y0.000 F600.0
G1 X13.023 Y0.000 F600.0
G1 X13.023 Y0.000 F600.0
G1 X13.023 Y0.000 F600.0
G1 X13.023 Y0.000 F600.0
G1 X13.023 Y-0.000 F600.0
G1 X13.023 Y-0.000 F600.0
G1 X13.023 Y-0.000 F600.0
G1 X13.023 Y-0.000 F600.0
G1 X13.024 Y0.000 F600.0
G1 X13.025 Y-0.000 F600.0
G1 X13.025 Y-0.000 F600.0
G1 X13.025 Y0.000 F600.0
G1 X13.027 Y0.000 F600.0
G1 X13.027 Y0.000 F600.0
G1 X13.027 Y-0.000 F600.0
G1 X13.027 Y-0.000 F600.0
G1 X13.027 Y0.000 F600.0
G1 X13.039 Y4.000 F600.0
G1 X13.053 Y0.000 F600.0
G1 X13.078 Y0.001 F600.0
G1 X13.104 Y0.004 F600.0
G1 X13.167 Y0.012 F600.0
G1 X13.198 Y0.301 F600.0
G1 X13.225 Y0.500 F600.0
G1 X13.225 Y0.500 F600.0
G1 X13.225 Y0.500 F600.0
G1 X13.225 Y0.500 F600.0
G1 X13.225 Y0.396 F600.0
G1 X13.225 Y0.500 F600.0
G1 X13.226 Y0.029 F600.0
G1 X13.261 Y0.044 F600.0
G1 X13.265 Y0.465 F600.0
G1 X13.287 Y0.301 F600.0
G1 X13.300 Y0.427 F600.0
G1 X13.306 Y0.071 F600.0
G1 X13.316 Y0.500 F600.0
G1 X13.316 Y0.396 F600.0
G1 X13.316 Y0.500 F600.0
G1 X13.330 Y0.387 F600.0
G1 X13.339 Y0.106 F600.0
G1 X13.349 Y0.119 F600.0
G1 X13.352 Y0.345 F600.0
G1 X13.366 Y0.301 F600.0
G1 X13.366 Y0.301 F600.0
G1 X13.366 Y0.301 F600.0
G1 X13.366 Y0.301 F600.0
G1 X13.366 Y0.301 F600.0
G1 X13.373 Y0.162 F600.0
G1 X13.375 Y0.271 F600.0
G1 X13.381 Y0.240 F600.0
G1 X13.382 Y-0.000 F600.0
G1 X13.382 Y0.208 F600.0
G1 X13.382 Y1.000 F600.0
G1 X13.397 Y0.000 F600.0
G1 X13.397 Y0.500 F600.0
G1 X13.397 Y0.500 F600.0
G1 X13.397 Y0.500 F600.0
G1 X13.397 Y0.500 F600.0
G1 X13.397 Y0.500 F600.0
G1 X13.397 Y0.500 F600.0
G1 X13.397 Y0.500 F600.0
G1 X13.397 Y3.000 F600.0
G1 X13.397 Y3.000 F600.0
G1 X13.397 Y3.000 F600.0
G1 X13.397 Y4.000 F600.0
G1 X13.397 Y4.000 F600.0
G1 X13.397 Y4.000 F600.0
G1 X13.397 Y4.000 F600.0
G1 X13.397 Y4.000 F600.0
G1 X13.397 Y0.396 F600.0
G1 X13.397 Y0.396 F600.0
G1 X13.397 Y0.500 F600.0
G1 X13.397 Y0.500 F600.0
G1 X13.397 Y3.000 F600.0
G1 X13.397 Y3.000 F600.0
G1 X13.397 Y3.000 F600.0
G1 X13.397 Y3.000 F600.0
G1 X13.397 Y3.000 F600.0
G1 X13.397 Y3.000 F600.0
G1 X13.397 Y3.000 F600.0
G1 X13.397 Y3.000 F600.0
G1 X13.397 Y3.000 F600.0
G1 X13.397 Y4.000 F600.0
G1 X14.800 Y0.500 F600.0
G1 X14.800 Y1.000 F600.0
G1 X14.800 Y1.000 F600.0
G1 X14.800 Y1.000 F600.0
G1 X14.800 Y1.000 F600.0
G1 X14.800 Y1.000 F600.0
G1 X14.800 Y3.000 F600.0
G1 X14.800 Y3.000 F600.0
G1 X14.800 Y3.000 F600.0
G1 X14.800 Y3.000 F600.0
G1 X14.800 Y3.000 F600.0
G1 X14.800 Y3.000 F600.0
G1 X15.188 Y1.000 F600.0
G1 X15.575 Y0.895 F600.0
G1 X15.792 Y-0.000 F600.0
G1 X15.880 Y0.714 F600.0
G1 X15.918 Y0.000 F600.0
G1 X15.918 Y0.000 F600.0
G1 X15.918 Y-0.000 F600.0
G1 X15.918 Y-0.000 F600.0
G1 X15.921 Y0.000 F600.0
G1 X15.921 Y0.000 F600.0
G1 X15.921 Y0.000 F600.0
G1 X15.921 Y0.000 F600.0
G1 X15.921 Y0.000 F600.0
G1 X15.921 Y0.000 F600.0
G1 X15.921 Y0.000 F600.0
G1 X15.921 Y0.000 F600.0
G1 X15.971 Y-0.000 F600.0
G1 X16.025 Y0.004 F600.0
G1 X16.076 Y-0.000 F600.0
G1 X16.079 Y0.013 F600.0
G1 X16.123 Y0.500 F600.0
G1 X16.123 Y0.500 F600.0
G1 X16.123 Y0.500 F600.0
G1 X16.123 Y-0.000 F600.0
G1 X16.123 Y0.500 F600.0
G1 X16.123 Y0.500 F600.0
G1 X16.160 Y0.042 F600.0
G1 X16.185 Y0.146 F600.0
G1 X16.193 Y0.438 F600.0
G1 X16.218 Y0.089 F600.0
G1 X16.237 Y0.110 F600.0
G1 X16.248 Y0.370 F600.0
G1 X16.282 Y0.299 F600.0
G1 X16.291 Y-0.000 F600.0
G1 X16.291 Y0.196 F600.0
G1 X16.291 Y1.000 F600.0
G1 X16.295 Y0.000 F600.0
G1 X16.295 Y0.293 F600.0
G1 X16.295 Y0.500 F600.0
G1 X16.295 Y0.500 F600.0
G1 X16.295 Y-0.000 F600.0
G1 X16.295 Y0.500 F600.0
G1 X16.295 Y0.500 F600.0
G1 X16.295 Y0.500 F600.0
G1 X16.295 Y0.500 F600.0
G1 X16.295 Y0.500 F600.0
G1 X16.295 Y0.500 F600.0
G1 X16.295 Y0.500 F600.0
G1 X16.295 Y3.000 F600.0
G1 X16.295 Y3.000 F600.0
G1 X16.295 Y3.000 F600.0
G1 X16.295 Y3.000 F600.0
G1 X16.295 Y4.000 F600.0
G1 X16.295 Y4.000 F600.0
G1 X16.295 Y4.000 F600.0
G1 X16.295 Y4.000 F600.0
G1 X16.295 Y4.000 F600.0
G1 X16.295 Y4.000 F600.0
G1 X16.295 Y3.000 F600.0
G1 X16.295 Y3.000 F600.0
G1 X16.295 Y3.000 F600.0
G1 X16.295 Y3.000 F600.0
G1 X16.295 Y3.000 F600.0
G1 X16.295 Y3.000 F600.0
G1 X16.295 Y3.000 F600.0
G1 X16.295 Y3.000 F600.0
G1 X16.300 Y0.000 F600.0
G1 X16.300 Y0.000 F600.0
G1 X16.300 Y0.000 F600.0
G1 X16.300 Y0.000 F600.0
G1 X16.300 Y0.000 F600.0
G1 X16.300 Y0.000 F600.0
G1 X16.300 Y-0.000 F600.0
G1 X16.300 Y-0.000 F600.0
G1 X16.300 Y0.000 F600.0
G1 X16.300 Y0.000 F600.0
G1 X16.300 Y0.000 F600.0
G1 X16.300 Y0.000 F600.0
G1 X16.300 Y0.000 F600.0
G1 X16.300 Y0.000 F600.0
G1 X16.300 Y0.000 F600.0
G1 X16.300 Y0.000 F600.0
G1 X16.300 Y0.000 F600.0
G1 X16.300 Y0.000 F600.0
G1 X16.300 Y-0.000 F600.0
G1 X16.300 Y-0.000 F600.0
G1 X16.300 Y-0.000 F600.0
G1 X16.300 Y0.000 F600.0
G1 X16.507 Y-0.000 F600.0
G1 X16.600 Y3.000 F600.0
G1 X16.600 Y3.000 F600.0
G1 X16.600 Y3.000 F600.0
G1 X16.600 Y3.000 F600.0
G1 X16.600 Y3.000 F600.0
G1 X16.600 Y3.000 F600.0
G1 X16.600 Y3.000 F600.0
G1 X16.600 Y3.000 F600.0
G1 X16.600 Y3.000 F600.0
G1 X16.600 Y3.000 F600.0
G1 X16.600 Y3.000 F600.0
G1 X16.600 Y3.000 F600.0
G1 X16.600 Y3.000 F600.0
G1 X16.600 Y3.000 F600.0
G1 X16.600 Y3.000 F600.0
G1 X16.600 Y3.000 F600.0
G1 X16.604 Y3.000 F600.0
G1 X16.604 Y3.000 F600.0
G1 X16.608 Y3.008 F600.0
G1 X16.611 Y3.011 F600.0
G1 X16.612 Y3.000 F600.0
G1 X16.612 Y3.000 F600.0
G1 X16.632 Y3.032 F600.0
G1 X16.634 Y3.000 F600.0
G1 X16.634 Y3.000 F600.0
G1 X16.643 Y3.043 F600.0
G1 X16.654 Y0.146 F600.0
G1 X16.664 Y3.064 F600.0
G1 X16.668 Y3.000 F600.0
G1 X16.668 Y3.000 F600.0
G1 X16.680 Y3.080 F600.0
G1 X16.688 Y3.000 F600.0
G1 X16.688 Y3.000 F600.0
G1 X16.700 Y3.100 F600.0
G1 X16.700 Y3.100 F600.0
G1 X16.722 Y3.000 F600.0
G1 X16.722 Y3.000 F600.0
G1 X16.760 Y3.000 F600.0
G1 X16.760 Y3.000 F600.0
G1 X16.773 Y3.000 F600.0
G1 X16.773 Y3.000 F600.0
G1 X16.786 Y3.000 F600.0
G1 X16.787 Y3.000 F600.0
G1 X16.800 Y3.000 F600.0
G1 X16.800 Y3.000 F600.0
G1 X16.800 Y2.800 F600.0
G1 X16.800 Y2.800 F600.0
G1 X16.800 Y2.800 F600.0
G1 X16.800 Y-0.000 F600.0
G1 X16.800 Y-0.000 F600.0
G1 X16.800 Y-0.000 F600.0
G1 X16.800 Y-0.000 F600.0
G1 X16.800 Y0.000 F600.0
G1 X16.800 Y-0.000 F600.0
G1 X16.800 Y-0.000 F600.0
G1 X16.800 Y0.293 F600.0
G1 X16.800 Y0.500 F600.0
G1 X16.800 Y0.500 F600.0
G1 X16.800 Y0.500 F600.0
G1 X16.800 Y0.500 F600.0
G1 X16.800 Y0.500 F600.0
G1 X16.800 Y0.500 F600.0
G1 X16.800 Y0.500 F600.0
G1 X16.800 Y0.500 F600.0
G1 X16.800 Y0.500 F600.0
G1 X16.800 Y0.500 F600.0
G1 X16.800 Y0.500 F600.0
G1 X16.800 Y0.500 F600.0
G1 X16.800 Y0.500 F600.0
G1 X16.800 Y0.500 F600.0
G1 X16.800 Y0.500 F600.0
G1 X16.800 Y0.500 F600.0
G1 X16.800 Y0.500 F600.0
G1 X16.800 Y0.500 F600.0
G1 X16.800 Y0.500 F600.0
G1 X16.800 Y0.500 F600.0
G1 X16.800 Y0.500 F600.0
G1 X16.800 Y0.500 F600.0
G1 X16.800 Y0.500 F600.0
G1 X16.800 Y0.500 F600.0
G1 X16.800 Y2.800 F600.0
G1 X16.800 Y2.800 F600.0
G1 X16.800 Y2.800 F600.0
G1 X16.800 Y2.800 F600.0
G1 X16.800 Y2.800 F600.0
G1 X16.800 Y2.800 F600.0
G1 X16.800 Y2.800 F600.0
G1 X16.800 Y2.800 F600.0
G1 X16.800 Y2.800 F600.0
G1 X16.800 Y2.800 F600.0
G1 X16.800 Y2.800 F600.0
G1 X16.800 Y2.800 F600.0
G1 X16.800 Y2.800 F600.0
G1 X16.800 Y2.805 F600.0
G1 X16.800 Y2.805 F600.0
G1 X16.800 Y2.814 F600.0
G1 X16.800 Y2.815 F600.0
G1 X16.800 Y2.836 F600.0
G1 X16.800 Y2.837 F600.0
G1 X16.800 Y2.868 F600.0
G1 X16.800 Y2.868 F600.0
G1 X16.800 Y2.882 F600.0
G1 X16.800 Y2.882 F600.0
G1 X16.800 Y2.898 F600.0
G1 X16.800 Y2.898 F600.0
G1 X16.800 Y2.916 F600.0
G1 X16.800 Y2.916 F600.0
G1 X16.800 Y2.916 F600.0
G1 X16.800 Y2.916 F600.0
G1 X16.800 Y2.916 F600.0
G1 X16.800 Y2.916 F600.0
G1 X16.800 Y2.931 F600.0
G1 X16.800 Y2.931 F600.0
G1 X16.800 Y2.947 F600.0
G1 X16.800 Y2.948 F600.0
G1 X16.800 Y2.964 F600.0
G1 X16.800 Y2.964 F600.0
G1 X16.800 Y2.982 F600.0
G1 X16.800 Y2.982 F600.0
G1 X16.800 Y3.000 F600.0
G1 X16.800 Y3.000 F600.0
G1 X16.800 Y3.000 F600.0
G1 X16.800 Y3.000 F600.0
G1 X16.800 Y3.000 F600.0
G1 X16.800 Y3.000 F600.0
G1 X16.800 Y3.000 F600.0
G1 X16.800 Y3.000 F600.0
G1 X16.800 Y3.000 F600.0
G1 X16.800 Y3.000 F600.0
G1 X16.800 Y3.000 F600.0
G1 X16.800 Y3.000 F600.0
G1 X16.800 Y3.000 F600.0
G1 X16.800 Y3.000 F600.0
G1 X16.800 Y3.000 F600.0
G1 X16.800 Y3.000 F600.0
G1 X16.800 Y3.000 F600.0
G1 X16.800 Y3.800 F600.0
G1 X16.800 Y3.800 F600.0
G1 X16.800 Y3.800 F600.0
G1 X16.800 Y3.800 F600.0
G1 X16.800 Y3.800 F600.0
G1 X16.800 Y4.000 F600.0
G1 X16.800 Y4.000 F600.0
G1 X16.800 Y4.000 F600.0
G1 X16.800 Y4.000 F600.0
G1 X16.800 Y4.000 F600.0
G1 X16.800 Y4.000 F600.0
G1 X16.800 Y4.000 F600.0
G1 X16.800 Y4.000 F600.0
G1 X16.800 Y4.000 F600.0
G1 X16.800 Y4.000 F600.0
G1 X16.800 Y4.000 F600.0
G1 X16.800 Y4.000 F600.0
G1 X16.800 Y4.000 F600.0
G1 X16.800 Y4.000 F600.0
G1 X16.800 Y4.000 F600.0
G1 X16.800 Y4.000 F600.0
G1 X16.800 Y3.000 F600.0
G1 X16.800 Y3.000 F600.0
G1 X16.800 Y3.000 F600.0
G1 X16.800 Y3.000 F600.0
G1 X16.800 Y3.000 F600.0
G1 X16.800 Y3.000 F600.0
G1 X16.800 Y3.000 F600.0
G1 X16.800 Y3.000 F600.0
G1 X16.800 Y3.000 F600.0
G1 X16.800 Y3.000 F600.0
G1 X16.800 Y3.000 F600.0
G1 X16.800 Y3.000 F600.0
G1 X16.800 Y3.000 F600.0
G1 X16.800 Y3.000 F600.0
G1 X16.800 Y3.000 F600.0
G1 X16.800 Y3.000 F600.0
G1 X16.800 Y3.000 F600.0
G1 X16.800 Y3.000 F600.0
G1 X16.800 Y3.000 F600.0
G1 X16.800 Y3.000 F600.0
G1 X16.800 Y3.800 F600.0
G1 X16.800 Y3.000 F600.0
G1 X16.800 Y3.000 F600.0
G1 X16.800 Y3.000 F600.0
G1 X16.800 Y3.000 F600.0
G1 X16.800 Y3.000 F600.0
G1 X16.800 Y3.000 F600.0
G1 X16.808 Y2.808 F600.0
G1 X16.811 Y2.811 F600.0
G1 X16.832 Y2.832 F600.0
G1 X16.843 Y2.843 F600.0
G1 X16.864 Y2.864 F600.0
G1 X16.880 Y2.880 F600.0
G1 X16.900 Y2.900 F600.0
G1 X16.900 Y2.900 F600.0
G1 X66.150 Y279.000 F600.0
G1 X-16.800 Y3.000 F600.0
(LAYER 3/64, Z = 30.800)
G0 Z20.0
G0 X-16.800 Y3.000
G1 Z30.800 F600.0
G1 X-16.800 Y3.000 F600.0
G1 X-16.800 Y3.000 F600.0
G1 X-16.800 Y3.000 F600.0
G1 X-16.800 Y3.000 F600.0
G1 X-16.800 Y3.000 F600.0
G1 X-16.800 Y3.000 F600.0
G1 X-16.800 Y3.000 F600.0
G1 X-16.800 Y3.000 F600.0
G1 X-16.800 Y3.000 F600.0
G1 X-16.800 Y3.000 F600.0
G1 X-16.800 Y3.000 F600.0
G1 X-16.800 Y3.000 F600.0
G1 X-16.800 Y3.000 F600.0
G1 X-16.800 Y3.000 F600.0
G1 X-16.800 Y3.000 F600.0
G1 X-16.800 Y3.000 F600.0
G1 X-16.800 Y3.000 F600.0
G1 X-16.800 Y3.000 F600.0
G1 X-16.800 Y3.000 F600.0
G1 X-16.800 Y3.000 F600.0
G1 X-16.800 Y3.000 F600.0
G1 X-16.800 Y3.000 F600.0
G1 X-16.800 Y3.000 F600.0
G1 X-16.800 Y4.000 F600.0
G1 X-16.800 Y-0.000 F600.0
G1 X-16.800 Y-0.000 F600.0
G1 X-16.800 Y-0.000 F600.0
G1 X-16.800 Y-0.000 F600.0
G1 X-16.800 Y0.000 F600.0
G1 X-16.800 Y0.000 F600.0
G1 X-16.800 Y0.000 F600.0
G1 X-16.800 Y0.000 F600.0
G1 X-16.800 Y0.500 F600.0
G1 X-16.800 Y0.500 F600.0
G1 X-16.800 Y0.500 F600.0
G1 X-16.800 Y0.500 F600.0
G1 X-16.800 Y0.500 F600.0
G1 X-16.800 Y0.500 F600.0
G1 X-16.800 Y0.500 F600.0
G1 X-16.800 Y0.500 F600.0
G1 X-16.800 Y0.500 F600.0
G1 X-16.800 Y0.500 F600.0
G1 X-16.800 Y0.500 F600.0
G1 X-16.800 Y0.500 F600.0
G1 X-16.800 Y0.500 F600.0
G1 X-16.800 Y0.500 F600.0
G1 X-16.800 Y0.500 F600.0
G1 X-16.800 Y0.500 F600.0
G1 X-16.800 Y0.500 F600.0
G1 X-16.800 Y0.500 F600.0
G1 X-16.800 Y0.500 F600.0
G1 X-16.800 Y0.500 F600.0
G1 X-16.800 Y0.500 F600.0
G1 X-16.800 Y0.500 F600.0
G1 X-16.800 Y0.500 F600.0
G1 X-16.800 Y0.500 F600.0
G1 X-16.800 Y3.000 F600.0
G1 X-16.800 Y3.000 F600.0
G1 X-16.800 Y3.000 F600.0
G1 X-16.800 Y3.000 F600.0
G1 X-16.800 Y3.000 F600.0
G1 X-16.800 Y3.000 F600.0
G1 X-16.800 Y3.000 F600.0
G1 X-16.800 Y3.000 F600.0
G1 X-16.800 Y3.000 F600.0
G1 X-16.800 Y3.000 F600.0
G1 X-16.800 Y3.000 F600.0
G1 X-16.800 Y3.800 F600.0
G1 X-16.800 Y3.800 F600.0
G1 X-16.800 Y3.800 F600.0
G1 X-16.800 Y3.800 F600.0
G1 X-16.800 Y3.800 F600.0
G1 X-16.800 Y3.800 F600.0
G1 X-16.800 Y3.800 F600.0
G1 X-16.800 Y3.800 F600.0
G1 X-16.800 Y3.800 F600.0
G1 X-16.800 Y3.800 F600.0
G1 X-16.800 Y3.800 F600.0
G1 X-16.800 Y3.800 F600.0
G1 X-16.800 Y3.800 F600.0
G1 X-16.800 Y3.800 F600.0
G1 X-16.800 Y4.000 F600.0
G1 X-16.800 Y4.000 F600.0
G1 X-16.800 Y4.000 F600.0
G1 X-16.800 Y3.000 F600.0
G1 X-16.798 Y3.000 F600.0
G1 X-16.794 Y3.000 F600.0
G1 X-16.763 Y3.837 F600.0
G1 X-16.763 Y3.837 F600.0
G1 X-16.762 Y3.000 F600.0
G1 X-16.693 Y3.907 F600.0
G1 X-16.693 Y3.907 F600.0
G1 X-16.678 Y3.000 F600.0
G1 X-16.600 Y4.000 F600.0
G1 X-16.600 Y4.000 F600.0
G1 X-16.600 Y4.000 F600.0
G1 X-16.600 Y4.000 F600.0
G1 X-16.600 Y4.000 F600.0
G1 X-16.600 Y4.000 F600.0
G1 X-16.600 Y4.000 F600.0
G1 X-16.600 Y4.000 F600.0
G1 X-16.600 Y4.000 F600.0
G1 X-16.600 Y4.000 F600.0
G1 X-16.600 Y4.000 F600.0
G1 X-16.600 Y4.000 F600.0
G1 X-16.578 Y3.000 F600.0
G1 X-16.479 Y4.000 F600.0
G1 X-16.449 Y3.000 F600.0
G1 X-16.300 Y0.000 F600.0
G1 X-16.300 Y0.000 F600.0
G1 X-16.300 Y0.000 F600.0
G1 X-16.300 Y0.000 F600.0
G1 X-16.300 Y0.000 F600.0
G1 X-16.300 Y0.000 F600.0
G1 X-16.300 Y0.000 F600.0
G1 X-16.300 Y0.000 F600.0
G1 X-16.300 Y0.000 F600.0
G1 X-16.300 Y-0.000 F600.0
G1 X-16.300 Y-0.000 F600.0
G1 X-16.300 Y0.000 F600.0
G1 X-16.300 Y-0.000 F600.0
G1 X-16.300 Y-0.000 F600.0
G1 X-16.300 Y-0.000 F600.0
G1 X-16.300 Y-0.000 F600.0
G1 X-16.300 Y-0.000 F600.0
G1 X-16.300 Y0.000 F600.0
G1 X-16.300 Y0.000 F600.0
G1 X-16.300 Y0.000 F600.0
G1 X-16.300 Y0.000 F600.0
G1 X-16.300 Y0.000 F600.0
G1 X-16.300 Y0.000 F600.0
G1 X-16.300 Y0.000 F600.0
G1 X-16.300 Y0.000 F600.0
G1 X-16.300 Y-0.000 F600.0
G1 X-16.295 Y3.000 F600.0
G1 X-16.295 Y3.000 F600.0
G1 X-16.295 Y3.000 F600.0
G1 X-16.295 Y3.000 F600.0
G1 X-16.295 Y3.000 F600.0
G1 X-16.295 Y-0.000 F600.0
G1 X-16.295 Y0.000 F600.0
G1 X-16.295 Y0.293 F600.0
G1 X-16.295 Y0.500 F600.0
G1 X-16.295 Y0.500 F600.0
G1 X-16.295 Y0.500 F600.0
G1 X-16.295 Y0.500 F600.0
G1 X-16.295 Y0.500 F600.0
G1 X-16.295 Y0.500 F600.0
G1 X-16.295 Y0.500 F600.0
G1 X-16.295 Y0.500 F600.0
G1 X-16.295 Y0.500 F600.0
G1 X-16.295 Y3.000 F600.0
G1 X-16.295 Y3.000 F600.0
G1 X-16.295 Y3.000 F600.0
G1 X-16.295 Y3.000 F600.0
G1 X-16.295 Y3.000 F600.0
G1 X-16.295 Y3.000 F600.0
G1 X-16.295 Y3.000 F600.0
G1 X-16.295 Y4.000 F600.0
G1 X-16.295 Y4.000 F600.0
G1 X-16.295 Y4.000 F600.0
G1 X-16.295 Y4.000 F600.0
G1 X-16.295 Y4.000 F600.0
G1 X-16.295 Y4.000 F600.0
G1 X-16.276 Y-0.000 F600.0
G1 X-16.276 Y0.215 F600.0
G1 X-16.276 Y1.000 F600.0
G1 X-16.276 Y0.286 F600.0
G1 X-16.274 Y0.194 F600.0
G1 X-16.262 Y0.151 F600.0
G1 X-16.248 Y0.356 F600.0
G1 X-16.237 Y0.110 F600.0
G1 X-16.230 Y4.000 F600.0
G1 X-16.218 Y0.403 F600.0
G1 X-16.218 Y0.089 F600.0
G1 X-16.214 Y3.000 F600.0
G1 X-16.214 Y3.000 F600.0
G1 X-16.185 Y0.146 F600.0
G1 X-16.178 Y0.057 F600.0
G1 X-16.178 Y0.450 F600.0
G1 X-16.131 Y0.493 F600.0
G1 X-16.128 Y0.495 F600.0
G1 X-16.128 Y0.033 F600.0
G1 X-16.125 Y0.498 F600.0
G1 X-16.123 Y-0.000 F600.0
G1 X-16.123 Y0.500 F600.0
G1 X-16.123 Y0.500 F600.0
G1 X-16.123 Y0.500 F600.0
G1 X-16.123 Y0.500 F600.0
G1 X-16.123 Y0.500 F600.0
G1 X-16.104 Y0.025 F600.0
G1 X-16.076 Y-0.000 F600.0
G1 X-16.054 Y0.011 F600.0
G1 X-16.041 Y0.572 F600.0
G1 X-16.001 Y0.003 F600.0
G1 X-15.973 Y0.001 F600.0
G1 X-15.952 Y0.641 F600.0
G1 X-15.946 Y-0.000 F600.0
G1 X-15.921 Y0.000 F600.0
G1 X-15.921 Y0.000 F600.0
G1 X-15.921 Y0.000 F600.0
G1 X-15.921 Y-0.000 F600.0
G1 X-15.921 Y-0.000 F600.0
G1 X-15.921 Y-0.000 F600.0
G1 X-15.921 Y0.000 F600.0
G1 X-15.921 Y0.000 F600.0
G1 X-15.918 Y-0.000 F600.0
G1 X-15.918 Y-0.000 F600.0
G1 X-15.918 Y-0.000 F600.0
G1 X-15.918 Y0.000 F600.0
G1 X-15.856 Y0.705 F600.0
G1 X-15.792 Y-0.000 F600.0
G1 X-15.792 Y-0.000 F600.0
G1 X-15.792 Y-0.000 F600.0
G1 X-15.628 Y3.000 F600.0
G1 X-15.628 Y3.000 F600.0
G1 X-15.612 Y0.842 F600.0
G1 X-15.424 Y4.000 F600.0
G1 X-15.424 Y4.000 F600.0
G1 X-15.424 Y4.000 F600.0
G1 X-15.424 Y4.000 F600.0
G1 X-15.424 Y3.900 F600.0
G1 X-15.424 Y4.000 F600.0
G1 X-15.424 Y4.000 F600.0
G1 X-15.331 Y0.940 F600.0
G1 X-15.272 Y4.000 F600.0
G1 X-15.159 Y0.980 F600.0
G1 X-15.114 Y3.969 F600.0
G1 X-14.979 Y1.000 F600.0
G1 X-14.957 Y3.935 F600.0
G1 X-14.800 Y1.000 F600.0
G1 X-14.800 Y3.000 F600.0
G1 X-14.800 Y3.000 F600.0
G1 X-14.800 Y3.000 F600.0
G1 X-14.800 Y3.000 F600.0
G1 X-14.800 Y3.000 F600.0
G1 X-14.800 Y3.900 F600.0
G1 X-14.800 Y0.500 F600.0
G1 X-14.800 Y1.000 F600.0
G1 X-14.800 Y1.000 F600.0
G1 X-14.800 Y1.000 F600.0
G1 X-14.800 Y1.000 F600.0
G1 X-14.800 Y3.000 F600.0
G1 X-14.800 Y3.000 F600.0
G1 X-14.800 Y3.000 F600.0
G1 X-14.800 Y3.000 F600.0
G1 X-14.800 Y3.000 F600.0
G1 X-14.800 Y3.000 F600.0
G1 X-14.800 Y3.000 F600.0
G1 X-14.800 Y3.900 F600.0
G1 X-14.800 Y3.900 F600.0
G1 X-14.800 Y3.900 F600.0
G1 X-14.800 Y3.900 F600.0
G1 X-14.800 Y4.000 F600.0
G1 X-13.397 Y0.396 F600.0
G1 X-13.397 Y0.396 F600.0
G1 X-13.397 Y0.500 F600.0
G1 X-13.397 Y0.500 F600.0
G1 X-13.397 Y3.000 F600.0
G1 X-13.397 Y3.000 F600.0
G1 X-13.397 Y3.000 F600.0
G1 X-13.397 Y3.000 F600.0
G1 X-13.397 Y3.000 F600.0
G1 X-13.397 Y3.000 F600.0
G1 X-13.397 Y3.000 F600.0
G1 X-13.397 Y3.000 F600.0
G1 X-13.397 Y3.000 F600.0
G1 X-13.397 Y3.000 F600.0
G1 X-13.397 Y4.000 F600.0
G1 X-13.397 Y4.000 F600.0
G1 X-13.397 Y4.000 F600.0
G1 X-13.397 Y4.000 F600.0
G1 X-13.397 Y4.000 F600.0
G1 X-13.397 Y4.000 F600.0
G1 X-13.397 Y0.500 F600.0
G1 X-13.397 Y0.500 F600.0
G1 X-13.397 Y0.500 F600.0
G1 X-13.397 Y0.500 F600.0
G1 X-13.397 Y0.500 F600.0
G1 X-13.397 Y0.500 F600.0
G1 X-13.397 Y3.000 F600.0
G1 X-13.397 Y3.000 F600.0
G1 X-13.397 Y0.000 F600.0
G1 X-13.397 Y0.500 F600.0
G1 X-13.387 Y-0.000 F600.0
G1 X-13.387 Y0.193 F600.0
G1 X-13.387 Y1.000 F600.0
G1 X-13.382 Y0.248 F600.0
G1 X-13.375 Y0.132 F600.0
G1 X-13.366 Y0.301 F600.0
G1 X-13.366 Y0.301 F600.0
G1 X-13.366 Y0.301 F600.0
G1 X-13.366 Y0.301 F600.0
G1 X-13.366 Y0.301 F600.0
G1 X-13.344 Y0.372 F600.0
G1 X-13.316 Y0.396 F600.0
G1 X-13.316 Y0.500 F600.0
G1 X-13.316 Y0.500 F600.0
G1 X-13.307 Y3.000 F600.0
G1 X-13.300 Y0.052 F600.0
G1 X-13.293 Y0.440 F600.0
G1 X-13.287 Y0.301 F600.0
G1 X-13.225 Y0.396 F600.0
G1 X-13.225 Y0.500 F600.0
G1 X-13.225 Y0.500 F600.0
G1 X-13.225 Y0.500 F600.0
G1 X-13.225 Y0.500 F600.0
G1 X-13.225 Y0.500 F600.0
G1 X-13.209 Y3.000 F600.0
G1 X-13.198 Y0.301 F600.0
G1 X-13.180 Y0.013 F600.0
G1 X-13.129 Y0.005 F600.0
G1 X-13.103 Y3.000 F600.0
G1 X-13.078 Y0.000 F600.0
G1 X-13.039 Y4.000 F600.0
G1 X-13.027 Y0.000 F600.0
G1 X-13.027 Y0.000 F600.0
G1 X-13.027 Y0.000 F600.0
G1 X-13.027 Y0.000 F600.0
G1 X-13.027 Y0.000 F600.0
G1 X-13.025 Y0.000 F600.0
G1 X-13.025 Y-0.000 F600.0
G1 X-13.025 Y-0.000 F600.0
G1 X-13.024 Y0.000 F600.0
G1 X-13.023 Y-0.000 F600.0
G1 X-13.023 Y0.000 F600.0
G1 X-13.023 Y0.000 F600.0
G1 X-13.023 Y0.000 F600.0
G1 X-13.023 Y0.000 F600.0
G1 X-13.023 Y0.000 F600.0
G1 X-13.023 Y-0.000 F600.0
G1 X-13.023 Y0.000 F600.0
G1 X-13.023 Y0.000 F600.0
G1 X-13.022 Y-0.000 F600.0
G1 X-13.021 Y0.000 F600.0
G1 X-13.021 Y0.000 F600.0
G1 X-13.021 Y-0.000 F600.0
G1 X-13.021 Y0.000 F600.0
G1 X-13.020 Y0.000 F600.0
G1 X-13.020 Y0.000 F600.0
G1 X-13.020 Y0.000 F600.0
G1 X-13.020 Y-0.000 F600.0
G1 X-13.020 Y0.000 F600.0
G1 X-13.020 Y-0.000 F600.0
G1 X-13.020 Y-0.000 F600.0
G1 X-12.982 Y0.714 F600.0
G1 X-12.821 Y3.000 F600.0
G1 X-12.800 Y0.500 F600.0
G1 X-12.800 Y3.000 F600.0
G1 X-12.800 Y3.000 F600.0
G1 X-12.800 Y3.000 F600.0
G1 X-12.800 Y4.000 F600.0
G1 X-12.677 Y0.895 F600.0
G1 X-12.526 Y3.900 F600.0
G1 X-12.526 Y4.000 F600.0
G1 X-12.526 Y4.000 F600.0
G1 X-12.526 Y4.000 F600.0
G1 X-12.526 Y4.000 F600.0
G1 X-12.526 Y4.000 F600.0
G1 X-12.526 Y4.000 F600.0
G1 X-12.505 Y3.000 F600.0
G1 X-12.374 Y4.000 F600.0
G1 X-12.307 Y3.000 F600.0
G1 X-12.290 Y1.000 F600.0
G1 X-12.216 Y3.969 F600.0
G1 X-12.104 Y3.000 F600.0
G1 X-12.059 Y3.935 F600.0
G1 X-11.902 Y1.000 F600.0
G1 X-11.902 Y3.000 F600.0
G1 X-11.902 Y3.000 F600.0
G1 X-11.902 Y3.000 F600.0
G1 X-11.902 Y3.000 F600.0
G1 X-11.902 Y3.000 F600.0
G1 X-11.902 Y3.000 F600.0
G1 X-11.902 Y3.000 F600.0
G1 X-11.902 Y3.000 F600.0
G1 X-11.902 Y3.000 F600.0
G1 X-11.902 Y3.000 F600.0
G1 X-11.902 Y3.900 F600.0
G1 X-11.902 Y0.500 F600.0
G1 X-11.902 Y1.000 F600.0
G1 X-11.902 Y1.000 F600.0
G1 X-11.902 Y1.000 F600.0
G1 X-11.902 Y1.000 F600.0
G1 X-11.902 Y3.000 F600.0
G1 X-11.902 Y3.000 F600.0
G1 X-11.902 Y3.900 F600.0
G1 X-11.902 Y3.900 F600.0
G1 X-11.902 Y3.900 F600.0
G1 X-11.902 Y3.900 F600.0
G1 X-11.902 Y4.000 F600.0
G1 X-11.500 Y3.800 F600.0
G1 X-11.500 Y3.800 F600.0
G1 X-11.500 Y4.000 F600.0
G1 X-11.500 Y4.000 F600.0
G1 X-11.500 Y4.000 F600.0
G1 X-11.500 Y4.000 F600.0
G1 X-11.500 Y4.000 F600.0
G1 X-11.500 Y4.000 F600.0
G1 X-11.500 Y4.000 F600.0
G1 X-11.500 Y4.000 F600.0
G1 X-11.500 Y4.000 F600.0
G1 X-11.500 Y4.000 F600.0
G1 X-11.500 Y4.000 F600.0
G1 X-11.500 Y4.000 F600.0
G1 X-11.250 Y3.800 F600.0
G1 X-11.250 Y3.800 F600.0
G1 X-11.250 Y3.800 F600.0
G1 X-11.250 Y3.800 F600.0
G1 X-11.250 Y3.800 F600.0
G1 X-11.250 Y3.800 F600.0
G1 X-11.250 Y3.800 F600.0
G1 X-11.250 Y3.800 F600.0
G1 X-11.250 Y3.800 F600.0
G1 X-11.250 Y3.800 F600.0
G1 X-11.250 Y3.800 F600.0
G1 X-11.250 Y3.800 F600.0
G1 X-11.000 Y3.800 F600.0
G1 X-11.000 Y3.800 F600.0
G1 X-11.000 Y4.000 F600.0
G1 X-11.000 Y4.000 F600.0
G1 X-11.000 Y4.000 F600.0
G1 X-11.000 Y4.000 F600.0
G1 X-11.000 Y4.000 F600.0
G1 X-11.000 Y4.000 F600.0
G1 X-11.000 Y4.000 F600.0
G1 X-11.000 Y4.000 F600.0
G1 X-11.000 Y4.000 F600.0
G1 X-11.000 Y4.000 F600.0
G1 X-11.000 Y4.000 F600.0
G1 X-11.000 Y4.000 F600.0
G1 X-9.250 Y3.800 F600.0
G1 X-9.250 Y3.800 F600.0
G1 X-9.250 Y3.800 F600.0
G1 X-9.250 Y3.800 F600.0
G1 X-9.250 Y3.800 F600.0
G1 X-9.250 Y3.800 F600.0
G1 X-9.250 Y3.800 F600.0
G1 X-9.250 Y3.800 F600.0
G1 X-9.250 Y4.000 F600.0
G1 X-9.250 Y4.000 F600.0
G1 X-9.250 Y4.000 F600.0
G1 X-9.250 Y4.000 F600.0
G1 X-9.250 Y4.000 F600.0
G1 X-9.250 Y4.000 F600.0
G1 X-9.250 Y4.000 F600.0
G1 X-9.250 Y4.000 F600.0
G1 X-9.250 Y4.000 F600.0
G1 X-9.250 Y4.000 F600.0
G1 X-9.250 Y4.000 F600.0
G1 X-9.250 Y4.000 F600.0
G1 X-7.250 Y3.800 F600.0
G1 X-7.250 Y3.800 F600.0
G1 X-7.250 Y3.800 F600.0
G1 X-7.250 Y3.800 F600.0
G1 X-7.250 Y3.800 F600.0
G1 X-7.250 Y3.800 F600.0
G1 X-7.250 Y3.800 F600.0
G1 X-7.250 Y3.800 F600.0
G1 X-7.250 Y4.000 F600.0
G1 X-7.250 Y4.000 F600.0
G1 X-7.250 Y4.000 F600.0
G1 X-7.250 Y4.000 F600.0
G1 X-7.250 Y4.000 F600.0
G1 X-7.250 Y4.000 F600.0
G1 X-7.250 Y4.000 F600.0
G1 X-7.250 Y4.000 F600.0
G1 X-7.250 Y4.000 F600.0
G1 X-7.250 Y4.000 F600.0
G1 X-7.250 Y4.000 F600.0
G1 X-7.250 Y4.000 F600.0
G1 X-4.800 Y0.000 F600.0
G1 X-4.800 Y0.000 F600.0
G1 X-4.800 Y-0.000 F600.0
G1 X-4.800 Y0.000 F600.0
G1 X-4.800 Y0.000 F600.0
G1 X-4.800 Y0.000 F600.0
G1 X-4.800 Y0.000 F600.0
G1 X-4.800 Y0.000 F600.0
G1 X-4.800 Y0.000 F600.0
G1 X-4.800 Y0.000 F600.0
G1 X-4.800 Y0.000 F600.0
G1 X-4.800 Y0.000 F600.0
G1 X-4.800 Y0.000 F600.0
G1 X-4.800 Y0.000 F600.0
G1 X-4.800 Y-0.000 F600.0
G1 X-4.800 Y0.000 F600.0
G1 X-4.800 Y-0.000 F600.0
G1 X-4.800 Y0.000 F600.0
G1 X-4.800 Y-0.000 F600.0
G1 X-4.800 Y0.000 F600.0
G1 X-4.800 Y0.000 F600.0
G1 X-4.800 Y-0.000 F600.0
G1 X-4.800 Y-0.000 F600.0
G1 X-4.800 Y0.000 F600.0
G1 X-4.593 Y-0.000 F600.0
G1 X-4.593 Y-0.000 F600.0
G1 X-4.566 Y0.000 F600.0
G1 X-4.500 Y4.000 F600.0
G1 X-4.500 Y4.000 F600.0
G1 X-4.500 Y4.000 F600.0
G1 X-4.500 Y4.000 F600.0
G1 X-4.500 Y4.000 F600.0
G1 X-4.500 Y4.000 F600.0
G1 X-4.500 Y4.000 F600.0
G1 X-4.500 Y4.000 F600.0
G1 X-4.500 Y4.000 F600.0
G1 X-4.500 Y4.000 F600.0
G1 X-4.500 Y4.000 F600.0
G1 X-4.500 Y4.000 F600.0
G1 X-4.500 Y4.000 F600.0
G1 X-4.500 Y4.000 F600.0
G1 X-4.499 Y3.999 F600.0
G1 X-4.496 Y3.996 F600.0
G1 X-4.487 Y3.987 F600.0
G1 X-4.474 Y3.974 F600.0
G1 X-4.464 Y3.964 F600.0
G1 X-4.447 Y3.947 F600.0
G1 X-4.446 Y0.146 F600.0
G1 X-4.446 Y0.146 F600.0
G1 X-4.427 Y3.927 F600.0
G1 X-4.418 Y3.918 F600.0
G1 X-4.409 Y3.909 F600.0
G1 X-4.400 Y3.900 F600.0
G1 X-4.400 Y3.900 F600.0
G1 X-4.400 Y3.900 F600.0
G1 X-4.400 Y3.900 F600.0
G1 X-4.400 Y3.900 F600.0
G1 X-4.400 Y4.000 F600.0
G1 X-4.400 Y4.000 F600.0
G1 X-4.354 Y4.000 F600.0
G1 X-4.331 Y0.000 F600.0
G1 X-4.300 Y0.500 F600.0
G1 X-4.300 Y3.000 F600.0
G1 X-4.300 Y3.000 F600.0
G1 X-4.300 Y0.000 F600.0
G1 X-4.300 Y0.500 F600.0
G1 X-4.300 Y3.000 F600.0
G1 X-4.300 Y3.000 F600.0
G1 X-4.300 Y3.000 F600.0
G1 X-4.300 Y3.000 F600.0
G1 X-4.300 Y3.000 F600.0
G1 X-4.300 Y3.000 F600.0
G1 X-4.300 Y3.000 F600.0
G1 X-4.300 Y3.000 F600.0
G1 X-4.300 Y3.000 F600.0
G1 X-4.300 Y3.000 F600.0
G1 X-4.300 Y3.000 F600.0
G1 X-4.300 Y3.000 F600.0
G1 X-4.300 Y3.000 F600.0
G1 X-4.300 Y3.000 F600.0
G1 X-4.300 Y3.000 F600.0
G1 X-4.300 Y3.000 F600.0
G1 X-4.300 Y3.000 F600.0
G1 X-4.300 Y3.000 F600.0
G1 X-4.300 Y3.800 F600.0
G1 X-4.300 Y0.000 F600.0
G1 X-4.300 Y0.000 F600.0
G1 X-4.300 Y-0.000 F600.0
G1 X-4.300 Y-0.000 F600.0
G1 X-4.300 Y0.000 F600.0
G1 X-4.300 Y0.293 F600.0
G1 X-4.300 Y0.293 F600.0
G1 X-4.300 Y0.500 F600.0
G1 X-4.300 Y0.500 F600.0
G1 X-4.300 Y0.500 F600.0
G1 X-4.300 Y0.500 F600.0
G1 X-4.300 Y0.500 F600.0
G1 X-4.300 Y0.500 F600.0
G1 X-4.300 Y0.500 F600.0
G1 X-4.300 Y0.500 F600.0
G1 X-4.300 Y0.500 F600.0
G1 X-4.300 Y0.500 F600.0
G1 X-4.300 Y0.500 F600.0
G1 X-4.300 Y0.500 F600.0
G1 X-4.300 Y0.500 F600.0
G1 X-4.300 Y0.500 F600.0
G1 X-4.300 Y0.500 F600.0
G1 X-4.300 Y0.500 F600.0
G1 X-4.300 Y0.500 F600.0
G1 X-4.300 Y0.500 F600.0
G1 X-4.300 Y0.500 F600.0
G1 X-4.300 Y0.500 F600.0
G1 X-4.300 Y0.500 F600.0
G1 X-4.300 Y0.500 F600.0
G1 X-4.300 Y3.000 F600.0
G1 X-4.300 Y3.000 F600.0
G1 X-4.300 Y3.000 F600.0
G1 X-4.300 Y3.000 F600.0
G1 X-4.300 Y3.000 F600.0
G1 X-4.300 Y3.000 F600.0
G1 X-4.300 Y3.000 F600.0
G1 X-4.300 Y3.000 F600.0
G1 X-4.300 Y3.000 F600.0
G1 X-4.300 Y3.800 F600.0
G1 X-4.300 Y3.800 F600.0
G1 X-4.300 Y3.800 F600.0
G1 X-4.300 Y3.800 F600.0
G1 X-4.300 Y3.800 F600.0
G1 X-4.300 Y3.800 F600.0
G1 X-4.300 Y3.800 F600.0
G1 X-4.300 Y3.800 F600.0
G1 X-4.300 Y3.800 F600.0
G1 X-4.300 Y3.800 F600.0
G1 X-4.300 Y3.800 F600.0
G1 X-4.300 Y3.800 F600.0
G1 X-4.300 Y3.800 F600.0
G1 X-4.300 Y3.800 F600.0
G1 X-4.300 Y3.800 F600.0
G1 X-4.300 Y3.900 F600.0
G1 X-4.300 Y3.000 F600.0
G1 X-4.300 Y3.800 F600.0
G1 X-4.300 Y3.800 F600.0
G1 X-4.212 Y3.000 F600.0
G1 X-4.212 Y0.500 F600.0
G1 X-4.207 Y4.000 F600.0
G1 X-4.124 Y3.000 F600.0
G1 X-4.124 Y0.500 F600.0
G1 X-4.000 Y-0.000 F600.0
G1 X-4.000 Y0.000 F600.0
G1 X-4.000 Y0.500 F600.0
G1 X-4.000 Y0.500 F600.0
G1 X-4.000 Y0.500 F600.0
G1 X-4.000 Y0.500 F600.0
G1 X-4.000 Y0.500 F600.0
G1 X-4.000 Y0.500 F600.0
G1 X-4.000 Y3.000 F600.0
G1 X-4.000 Y0.000 F600.0
G1 X-4.000 Y0.000 F600.0
G1 X-4.000 Y0.000 F600.0
G1 X-4.000 Y0.000 F600.0
G1 X-4.000 Y0.000 F600.0
G1 X-4.000 Y0.000 F600.0
G1 X-4.000 Y0.000 F600.0
G1 X-4.000 Y-0.000 F600.0
G1 X-4.000 Y0.000 F600.0
G1 X-4.000 Y-0.000 F600.0
G1 X-4.000 Y-0.000 F600.0
G1 X-4.000 Y-0.000 F600.0
G1 X-4.000 Y0.000 F600.0
G1 X-4.000 Y0.000 F600.0
G1 X-4.000 Y-0.000 F600.0
G1 X-4.000 Y0.000 F600.0
G1 X-4.000 Y0.000 F600.0
G1 X-4.000 Y-0.000 F600.0
G1 X-4.000 Y0.000 F600.0
G1 X-4.000 Y0.000 F600.0
G1 X-4.000 Y0.146 F600.0
G1 X-4.000 Y0.293 F600.0
G1 X-4.000 Y0.500 F600.0
G1 X-4.000 Y0.500 F600.0
G1 X-4.000 Y0.500 F600.0
G1 X-4.000 Y0.500 F600.0
G1 X-4.000 Y0.500 F600.0
G1 X-4.000 Y0.500 F600.0
G1 X-4.000 Y0.500 F600.0
G1 X-4.000 Y0.500 F600.0
G1 X-4.000 Y0.500 F600.0
G1 X-4.000 Y0.500 F600.0
G1 X-4.000 Y0.500 F600.0
G1 X-4.000 Y0.500 F600.0
G1 X-4.000 Y3.000 F600.0
G1 X-4.000 Y3.000 F600.0
G1 X-4.000 Y3.000 F600.0
G1 X-4.000 Y3.000 F600.0
G1 X-4.000 Y3.000 F600.0
G1 X-4.000 Y3.000 F600.0
G1 X-4.000 Y3.000 F600.0
G1 X-4.000 Y3.000 F600.0
G1 X-4.000 Y3.000 F600.0
G1 X-4.000 Y3.000 F600.0
G1 X-4.000 Y3.000 F600.0
G1 X-4.000 Y3.000 F600.0
G1 X-4.000 Y3.000 F600.0
G1 X-4.000 Y3.000 F600.0
G1 X-4.000 Y3.000 F600.0
G1 X-4.000 Y3.000 F600.0
G1 X-4.000 Y3.000 F600.0
G1 X-4.000 Y3.800 F600.0
G1 X-4.000 Y3.800 F600.0
G1 X-4.000 Y3.800 F600.0
G1 X-4.000 Y3.800 F600.0
G1 X-4.000 Y3.800 F600.0
G1 X-4.000 Y3.800 F600.0
G1 X-4.000 Y3.800 F600.0
G1 X-4.000 Y3.800 F600.0
G1 X-4.000 Y3.800 F600.0
G1 X-4.000 Y4.000 F600.0
G1 X-4.000 Y4.000 F600.0
G1 X-4.000 Y4.000 F600.0
G1 X-4.000 Y4.000 F600.0
G1 X-4.000 Y4.000 F600.0
G1 X-4.000 Y4.000 F600.0
G1 X0.000 Y0.000 F600.0
G1 X0.000 Y0.000 F600.0
G1 X4.000 Y0.000 F600.0
G1 X4.000 Y0.000 F600.0
G1 X4.000 Y0.000 F600.0
G1 X4.000 Y0.000 F600.0
G1 X4.000 Y0.000 F600.0
G1 X4.000 Y0.000 F600.0
G1 X4.000 Y0.000 F600.0
G1 X4.000 Y0.000 F600.0
G1 X4.000 Y-0.000 F600.0
G1 X4.000 Y0.000 F600.0
G1 X4.000 Y0.000 F600.0
G1 X4.000 Y-0.000 F600.0
G1 X4.000 Y-0.000 F600.0
G1 X4.000 Y0.000 F600.0
G1 X4.000 Y-0.000 F600.0
G1 X4.000 Y0.000 F600.0
G1 X4.000 Y0.000 F600.0
G1 X4.000 Y-0.000 F600.0
G1 X4.000 Y-0.000 F600.0
G1 X4.000 Y-0.000 F600.0
G1 X4.000 Y0.000 F600.0
G1 X4.000 Y0.000 F600.0
G1 X4.000 Y0.146 F600.0
G1 X4.000 Y0.293 F600.0
G1 X4.000 Y0.500 F600.0
G1 X4.000 Y0.500 F600.0
G1 X4.000 Y0.500 F600.0
G1 X4.000 Y0.500 F600.0
G1 X4.000 Y0.500 F600.0
G1 X4.000 Y0.500 F600.0
G1 X4.000 Y0.500 F600.0
G1 X4.000 Y0.500 F600.0
G1 X4.000 Y0.500 F600.0
G1 X4.000 Y0.500 F600.0
G1 X4.000 Y0.500 F600.0
G1 X4.000 Y0.500 F600.0
G1 X4.000 Y0.500 F600.0
G1 X4.000 Y3.000 F600.0
G1 X4.000 Y3.000 F600.0
G1 X4.000 Y3.000 F600.0
G1 X4.000 Y3.000 F600.0
G1 X4.000 Y3.000 F600.0
G1 X4.000 Y3.000 F600.0
G1 X4.000 Y3.000 F600.0
G1 X4.000 Y3.000 F600.0
G1 X4.000 Y3.000 F600.0
G1 X4.000 Y3.000 F600.0
G1 X4.000 Y3.000 F600.0
G1 X4.000 Y0.500 F600.0
G1 X4.000 Y0.500 F600.0
G1 X4.000 Y0.500 F600.0
G1 X4.000 Y0.500 F600.0
G1 X4.000 Y0.500 F600.0
G1 X4.000 Y3.000 F600.0
G1 X4.198 Y2.902 F600.0
G1 X4.198 Y2.902 F600.0
G1 X4.198 Y2.902 F600.0
G1 X4.198 Y2.902 F600.0
G1 X4.199 Y2.901 F600.0
G1 X4.211 Y2.889 F600.0
G1 X4.223 Y2.877 F600.0
G1 X4.234 Y2.866 F600.0
G1 X4.235 Y2.865 F600.0
G1 X4.252 Y3.000 F600.0
G1 X4.252 Y3.000 F600.0
G1 X4.255 Y2.845 F600.0
G1 X4.267 Y2.833 F600.0
G1 X4.271 Y2.829 F600.0
G1 X4.278 Y2.822 F600.0
G1 X4.288 Y2.812 F600.0
G1 X4.289 Y2.811 F600.0
G1 X4.296 Y3.000 F600.0
G1 X4.296 Y3.000 F600.0
G1 X4.296 Y3.000 F600.0
G1 X4.296 Y3.000 F600.0
G1 X4.296 Y3.000 F600.0
G1 X4.296 Y3.000 F600.0
G1 X4.296 Y3.000 F600.0
G1 X4.296 Y3.000 F600.0
G1 X4.296 Y2.804 F600.0
G1 X4.298 Y2.970 F600.0
G1 X4.298 Y2.970 F600.0
G1 X4.299 Y2.801 F600.0
G1 X4.300 Y0.000 F600.0
G1 X4.300 Y0.500 F600.0
G1 X4.300 Y0.500 F600.0
G1 X4.300 Y2.800 F600.0
G1 X4.300 Y2.800 F600.0
G1 X4.300 Y2.800 F600.0
G1 X4.300 Y2.800 F600.0
G1 X4.300 Y2.800 F600.0
G1 X4.300 Y2.800 F600.0
G1 X4.300 Y2.800 F600.0
G1 X4.300 Y2.800 F600.0
G1 X4.300 Y0.000 F600.0
G1 X4.300 Y0.000 F600.0
G1 X4.300 Y0.000 F600.0
G1 X4.300 Y-0.000 F600.0
G1 X4.300 Y-0.000 F600.0
G1 X4.300 Y0.293 F600.0
G1 X4.300 Y0.293 F600.0
G1 X4.300 Y0.500 F600.0
G1 X4.300 Y0.500 F600.0
G1 X4.300 Y0.500 F600.0
G1 X4.300 Y0.500 F600.0
G1 X4.300 Y0.500 F600.0
G1 X4.300 Y0.500 F600.0
G1 X4.300 Y0.500 F600.0
G1 X4.300 Y0.500 F600.0
G1 X4.300 Y0.500 F600.0
G1 X4.300 Y0.500 F600.0
G1 X4.300 Y0.500 F600.0
G1 X4.300 Y0.500 F600.0
G1 X4.300 Y0.500 F600.0
G1 X4.300 Y0.500 F600.0
G1 X4.300 Y0.500 F600.0
G1 X4.300 Y0.500 F600.0
G1 X4.300 Y0.500 F600.0
G1 X4.300 Y0.500 F600.0
G1 X4.300 Y0.500 F600.0
G1 X4.300 Y0.500 F600.0
G1 X4.300 Y0.500 F600.0
G1 X4.300 Y0.500 F600.0
G1 X4.300 Y2.800 F600.0
G1 X4.300 Y2.800 F600.0
G1 X4.300 Y2.800 F600.0
G1 X4.300 Y2.800 F600.0
G1 X4.300 Y2.800 F600.0
G1 X4.300 Y2.800 F600.0
G1 X4.300 Y2.800 F600.0
G1 X4.300 Y2.800 F600.0
G1 X4.300 Y2.848 F600.0
G1 X4.300 Y2.848 F600.0
G1 X4.300 Y2.916 F600.0
G1 X4.300 Y2.916 F600.0
G1 X4.300 Y2.916 F600.0
G1 X4.300 Y2.916 F600.0
G1 X4.300 Y2.916 F600.0
G1 X4.300 Y2.916 F600.0
G1 X4.300 Y2.916 F600.0
G1 X4.300 Y2.916 F600.0
G1 X4.300 Y2.916 F600.0
G1 X4.300 Y2.916 F600.0
G1 X4.300 Y2.941 F600.0
G1 X4.300 Y2.941 F600.0
G1 X4.300 Y3.000 F600.0
G1 X4.300 Y3.000 F600.0
G1 X4.300 Y3.000 F600.0
G1 X4.300 Y3.000 F600.0
G1 X4.310 Y3.000 F600.0
G1 X4.310 Y3.000 F600.0
G1 X4.323 Y3.000 F600.0
G1 X4.323 Y3.000 F600.0
G1 X4.331 Y0.000 F600.0
G1 X4.337 Y3.000 F600.0
G1 X4.337 Y3.000 F600.0
G1 X4.376 Y3.000 F600.0
G1 X4.376 Y3.000 F600.0
G1 X4.398 Y3.102 F600.0
G1 X4.398 Y3.102 F600.0
G1 X4.398 Y3.102 F600.0
G1 X4.398 Y3.102 F600.0
G1 X4.399 Y3.101 F600.0
G1 X4.410 Y3.000 F600.0
G1 X4.410 Y3.000 F600.0
G1 X4.411 Y3.089 F600.0
G1 X4.423 Y3.077 F600.0
G1 X4.431 Y3.000 F600.0
G1 X4.431 Y3.000 F600.0
G1 X4.434 Y3.066 F600.0
G1 X4.435 Y3.065 F600.0
G1 X4.446 Y0.146 F600.0
G1 X4.446 Y0.146 F600.0
G1 X4.455 Y3.045 F600.0
G1 X4.465 Y3.000 F600.0
G1 X4.466 Y3.000 F600.0
G1 X4.467 Y3.033 F600.0
G1 X4.471 Y3.029 F600.0
G1 X4.478 Y3.022 F600.0
G1 X4.487 Y3.000 F600.0
G1 X4.488 Y3.000 F600.0
G1 X4.488 Y3.012 F600.0
G1 X4.489 Y3.011 F600.0
G1 X4.496 Y3.000 F600.0
G1 X4.496 Y3.000 F600.0
G1 X4.496 Y3.004 F600.0
G1 X4.499 Y3.001 F600.0
G1 X4.500 Y3.000 F600.0
G1 X4.500 Y3.000 F600.0
G1 X4.500 Y3.000 F600.0
G1 X4.500 Y3.000 F600.0
G1 X4.500 Y3.000 F600.0
G1 X4.500 Y3.000 F600.0
G1 X4.500 Y3.000 F600.0
G1 X4.500 Y3.000 F600.0
G1 X4.500 Y3.000 F600.0
G1 X4.500 Y3.000 F600.0
G1 X4.500 Y3.000 F600.0
G1 X4.500 Y3.000 F600.0
G1 X4.500 Y3.000 F600.0
G1 X4.500 Y3.000 F600.0
G1 X4.500 Y3.000 F600.0
G1 X4.500 Y3.000 F600.0
G1 X4.566 Y0.000 F600.0
G1 X4.593 Y-0.000 F600.0
G1 X4.593 Y-0.000 F600.0
G1 X4.800 Y0.000 F600.0
G1 X4.800 Y-0.000 F600.0
G1 X4.800 Y0.000 F600.0
G1 X4.800 Y0.000 F600.0
G1 X4.800 Y-0.000 F600.0
G1 X4.800 Y-0.000 F600.0
G1 X4.800 Y0.000 F600.0
G1 X4.800 Y-0.000 F600.0
G1 X4.800 Y0.000 F600.0
G1 X4.800 Y-0.000 F600.0
G1 X4.800 Y0.000 F600.0
G1 X4.800 Y0.000 F600.0
G1 X4.800 Y0.000 F600.0
G1 X4.800 Y0.000 F600.0
G1 X4.800 Y0.000 F600.0
G1 X4.800 Y0.000 F600.0
G1 X4.800 Y0.000 F600.0
G1 X4.800 Y0.000 F600.0
G1 X4.800 Y0.000 F600.0
G1 X4.800 Y-0.000 F600.0
G1 X4.800 Y0.000 F600.0
G1 X4.800 Y0.000 F600.0
G1 X4.800 Y0.000 F600.0
G1 X4.800 Y0.000 F600.0
G1 X7.250 Y3.800 F600.0
G1 X7.250 Y3.800 F600.0
G1 X7.250 Y3.800 F600.0
G1 X7.250 Y3.800 F600.0
G1 X7.250 Y3.800 F600.0
G1 X7.250 Y3.800 F600.0
G1 X7.250 Y3.800 F600.0
G1 X7.250 Y3.800 F600.0
G1 X7.250 Y4.000 F600.0
G1 X7.250 Y4.000 F600.0
G1 X7.250 Y4.000 F600.0
G1 X7.250 Y4.000 F600.0
G1 X7.250 Y4.000 F600.0
G1 X7.250 Y4.000 F600.0
G1 X7.250 Y4.000 F600.0
G1 X7.250 Y4.000 F600.0
G1 X7.250 Y4.000 F600.0
G1 X7.250 Y4.000 F600.0
G1 X7.250 Y4.000 F600.0
G1 X7.250 Y4.000 F600.0
G1 X9.250 Y3.800 F600.0
G1 X9.250 Y3.800 F600.0
G1 X9.250 Y3.800 F600.0
G1 X9.250 Y3.800 F600.0
G1 X9.250 Y3.800 F600.0
G1 X9.250 Y3.800 F600.0
G1 X9.250 Y3.800 F600.0
G1 X9.250 Y3.800 F600.0
G1 X9.250 Y4.000 F600.0
G1 X9.250 Y4.000 F600.0
G1 X9.250 Y4.000 F600.0
G1 X9.250 Y4.000 F600.0
G1 X9.250 Y4.000 F600.0
G1 X9.250 Y4.000 F600.0
G1 X9.250 Y4.000 F600.0
G1 X9.250 Y4.000 F600.0
G1 X9.250 Y4.000 F600.0
G1 X9.250 Y4.000 F600.0
G1 X9.250 Y4.000 F600.0
G1 X9.250 Y4.000 F600.0
G1 X11.000 Y3.800 F600.0
G1 X11.000 Y3.800 F600.0
G1 X11.000 Y4.000 F600.0
G1 X11.000 Y4.000 F600.0
G1 X11.000 Y4.000 F600.0
G1 X11.000 Y4.000 F600.0
G1 X11.000 Y4.000 F600.0
G1 X11.000 Y4.000 F600.0
G1 X11.000 Y4.000 F600.0
G1 X11.000 Y4.000 F600.0
G1 X11.000 Y4.000 F600.0
G1 X11.000 Y4.000 F600.0
G1 X11.000 Y4.000 F600.0
G1 X11.000 Y4.000 F600.0
G1 X11.250 Y3.800 F600.0
G1 X11.250 Y3.800 F600.0
G1 X11.250 Y3.800 F600.0
G1 X11.250 Y3.800 F600.0
G1 X11.250 Y3.800 F600.0
G1 X11.250 Y3.800 F600.0
G1 X11.250 Y3.800 F600.0
G1 X11.250 Y3.800 F600.0
G1 X11.250 Y3.800 F600.0
G1 X11.250 Y3.800 F600.0
G1 X11.250 Y3.800 F600.0
G1 X11.250 Y3.800 F600.0
G1 X11.500 Y3.800 F600.0
G1 X11.500 Y3.800 F600.0
G1 X11.500 Y4.000 F600.0
G1 X11.500 Y4.000 F600.0
G1 X11.500 Y4.000 F600.0
G1 X11.500 Y4.000 F600.0
G1 X11.500 Y4.000 F600.0
G1 X11.500 Y4.000 F600.0
G1 X11.500 Y4.000 F600.0
G1 X11.500 Y4.000 F600.0
G1 X11.500 Y4.000 F600.0
G1 X11.500 Y4.000 F600.0
G1 X11.500 Y4.000 F600.0
G1 X11.500 Y4.000 F600.0
G1 X11.902 Y0.500 F600.0
G1 X11.902 Y1.000 F600.0
G1 X11.902 Y1.000 F600.0
G1 X11.902 Y1.000 F600.0
G1 X11.902 Y1.000 F600.0
G1 X11.902 Y3.000 F600.0
G1 X11.902 Y3.000 F600.0
G1 X11.902 Y3.900 F600.0
G1 X11.902 Y3.900 F600.0
G1 X11.902 Y3.900 F600.0
G1 X11.902 Y3.900 F600.0
G1 X11.902 Y4.000 F600.0
G1 X11.902 Y1.000 F600.0
G1 X11.902 Y3.000 F600.0
G1 X11.902 Y3.000 F600.0
G1 X11.902 Y3.000 F600.0
G1 X11.902 Y3.000 F600.0
G1 X11.902 Y3.000 F600.0
G1 X11.902 Y3.000 F600.0
G1 X11.902 Y3.000 F600.0
G1 X11.902 Y3.000 F600.0
G1 X11.902 Y3.000 F600.0
G1 X11.902 Y3.000 F600.0
G1 X11.902 Y3.900 F600.0
G1 X12.059 Y3.935 F600.0
G1 X12.216 Y3.969 F600.0
G1 X12.290 Y1.000 F600.0
G1 X12.374 Y4.000 F600.0
G1 X12.526 Y3.900 F600.0
G1 X12.526 Y4.000 F600.0
G1 X12.526 Y4.000 F600.0
G1 X12.526 Y4.000 F600.0
G1 X12.526 Y4.000 F600.0
G1 X12.526 Y4.000 F600.0
G1 X12.526 Y4.000 F600.0
G1 X12.677 Y0.895 F600.0
G1 X12.800 Y0.500 F600.0
G1 X12.800 Y3.000 F600.0
G1 X12.800 Y3.000 F600.0
G1 X12.800 Y3.000 F600.0
G1 X12.800 Y3.000 F600.0
G1 X12.800 Y4.000 F600.0
G1 X12.982 Y0.714 F600.0
G1 X13.020 Y0.000 F600.0
G1 X13.020 Y0.000 F600.0
G1 X13.020 Y0.000 F600.0
G1 X13.020 Y-0.000 F600.0
G1 X13.020 Y-0.000 F600.0
G1 X13.020 Y-0.000 F600.0
G1 X13.020 Y0.000 F600.0
G1 X13.021 Y0.000 F600.0
G1 X13.021 Y-0.000 F600.0
G1 X13.021 Y-0.000 F600.0
G1 X13.021 Y-0.000 F600.0
G1 X13.022 Y-0.000 F600.0
G1 X13.023 Y0.000 F600.0
G1 X13.023 Y0.000 F600.0
G1 X13.023 Y0.000 F600.0
G1 X13.023 Y0.000 F600.0
G1 X13.023 Y0.000 F600.0
G1 X13.023 Y-0.000 F600.0
G1 X13.023 Y-0.000 F600.0
G1 X13.023 Y-0.000 F600.0
G1 X13.023 Y-0.000 F600.0
G1 X13.024 Y0.000 F600.0
G1 X13.025 Y-0.000 F600.0
G1 X13.025 Y-0.000 F600.0
G1 X13.025 Y0.000 F600.0
G1 X13.027 Y0.000 F600.0
